(Letter_C)
(T1  D=1. CR=0.5 - ZMIN=-1. - ball end mill)
G90
G0 G53 Z0.

(2D Contour21)
T1 M6 (ball end mill D=1. drag knife)
S47747 M3
G64
G54
G43 H1
G0 X-131.904 Y-65.729
Z15.
Z5.
G1 Z1. F9549.3
Z-0.9
X-131.896 Z-0.938
X-131.875 Z-0.971
X-131.842 Z-0.992
X-131.804 Z-1.
X-131.704
G3 X-131.604 Y-65.629 I0. J0.1
G1 Y143.376
G2 X-131.602 Y143.422 I0.5 J0.
G1 X-131.2 Y147.787
Y147.789
X-130.782 Y152.147
X-130.781 Y152.15
X-130.56 Y154.325
Y154.327
X-130.329 Y156.497
Y156.5
X-130.085 Y158.665
X-130.084 Y158.668
X-129.826 Y160.826
Y160.83
X-129.551 Y162.982
X-129.55 Y162.987
X-129.257 Y165.131
Y165.136
X-128.942 Y167.272
X-128.941 Y167.278
X-128.603 Y169.403
X-128.602 Y169.408
X-128.24 Y171.524
X-128.239 Y171.531
X-127.849 Y173.635
X-127.847 Y173.642
X-127.428 Y175.734
X-127.427 Y175.742
X-126.977 Y177.821
X-126.975 Y177.829
X-126.491 Y179.894
X-126.489 Y179.903
X-125.969 Y181.954
X-125.967 Y181.96
X-125.694 Y182.979
X-125.693 Y182.984
X-125.41 Y184.
X-125.408 Y184.006
X-125.114 Y185.017
X-125.113 Y185.021
X-124.81 Y186.028
X-124.808 Y186.033
X-124.494 Y187.036
X-124.493 Y187.041
X-124.169 Y188.039
X-124.167 Y188.045
X-123.831 Y189.039
X-123.829 Y189.045
X-123.482 Y190.034
X-123.48 Y190.039
X-123.122 Y191.023
X-123.12 Y191.029
X-122.75 Y192.009
X-122.747 Y192.015
X-122.365 Y192.989
X-122.363 Y192.994
X-121.969 Y193.964
X-121.967 Y193.97
X-121.56 Y194.934
X-121.557 Y194.94
X-121.138 Y195.899
X-121.136 Y195.905
X-120.705 Y196.859
X-120.702 Y196.864
X-120.259 Y197.814
X-120.257 Y197.82
X-119.803 Y198.764
X-119.8 Y198.769
X-119.335 Y199.709
X-119.332 Y199.714
X-118.855 Y200.649
X-118.853 Y200.654
X-118.366 Y201.585
X-118.363 Y201.59
X-117.865 Y202.517
X-117.863 Y202.521
X-117.355 Y203.443
X-117.352 Y203.448
X-116.834 Y204.366
X-116.832 Y204.37
X-116.305 Y205.284
X-116.301 Y205.29
X-115.217 Y207.107
X-115.213 Y207.115
X-114.095 Y208.917
X-114.09 Y208.924
X-112.938 Y210.712
X-112.934 Y210.718
X-111.75 Y212.493
X-111.746 Y212.499
X-110.533 Y214.262
X-110.529 Y214.268
X-109.289 Y216.019
X-109.286 Y216.024
X-108.021 Y217.766
X-108.017 Y217.77
X-106.729 Y219.501
X-106.726 Y219.505
X-105.417 Y221.228
X-105.414 Y221.232
X-104.086 Y222.947
X-104.084 Y222.95
X-102.739 Y224.659
X-102.737 Y224.662
X-101.378 Y226.364
X-101.376 Y226.366
X-100.003 Y228.063
X-100.002 Y228.065
X-98.619 Y229.757
X-98.618 Y229.759
X-95.83 Y233.135
X-95.829 Y233.137
X-93.024 Y236.505
G2 X-92.959 Y236.57 I0.384 J-0.32
G1 X-89.593 Y239.36
X-89.591 Y239.361
X-86.218 Y242.135
X-86.216 Y242.137
X-84.524 Y243.512
X-84.523 Y243.513
X-82.827 Y244.878
X-82.825 Y244.88
X-81.124 Y246.233
X-81.121 Y246.236
X-79.414 Y247.574
X-79.411 Y247.576
X-77.697 Y248.897
X-77.694 Y248.9
X-75.972 Y250.203
X-75.968 Y250.206
X-74.238 Y251.487
X-74.234 Y251.49
X-72.495 Y252.75
X-72.49 Y252.754
X-70.74 Y253.988
X-70.734 Y253.991
X-68.973 Y255.198
X-68.968 Y255.202
X-67.195 Y256.38
X-67.188 Y256.385
X-65.402 Y257.532
X-65.395 Y257.536
X-63.596 Y258.65
X-63.588 Y258.655
X-61.774 Y259.733
X-61.768 Y259.736
X-60.855 Y260.262
X-60.851 Y260.265
X-59.934 Y260.781
X-59.93 Y260.783
X-59.009 Y261.289
X-59.004 Y261.292
X-58.079 Y261.787
X-58.075 Y261.789
X-57.146 Y262.275
X-57.141 Y262.278
X-56.207 Y262.753
X-56.202 Y262.755
X-55.264 Y263.219
X-55.258 Y263.222
X-54.315 Y263.674
X-54.311 Y263.676
X-53.363 Y264.118
X-53.357 Y264.121
X-52.405 Y264.55
X-52.399 Y264.552
X-51.442 Y264.97
X-51.436 Y264.973
X-50.474 Y265.379
X-50.468 Y265.381
X-49.5 Y265.774
X-49.495 Y265.777
X-48.522 Y266.158
X-48.516 Y266.16
X-47.539 Y266.529
X-47.533 Y266.531
X-46.551 Y266.888
X-46.545 Y266.89
X-45.558 Y267.236
X-45.553 Y267.238
X-44.561 Y267.573
X-44.556 Y267.575
X-43.56 Y267.898
X-43.555 Y267.899
X-42.554 Y268.213
X-42.549 Y268.215
X-41.544 Y268.517
X-41.539 Y268.518
X-40.53 Y268.811
X-40.525 Y268.813
X-39.512 Y269.096
X-39.507 Y269.097
X-38.49 Y269.37
X-38.484 Y269.372
X-36.438 Y269.891
X-36.429 Y269.893
X-34.369 Y270.376
X-34.361 Y270.378
X-32.287 Y270.828
X-32.279 Y270.829
X-30.192 Y271.248
X-30.185 Y271.25
X-28.086 Y271.639
X-28.08 Y271.64
X-25.969 Y272.003
X-25.963 Y272.004
X-23.843 Y272.342
X-23.837 Y272.343
X-21.707 Y272.658
X-21.702
X-19.564 Y272.952
X-19.559 Y272.953
X-17.413 Y273.228
X-17.409
X-15.256 Y273.487
X-15.253 Y273.488
X-13.094 Y273.732
X-13.091
X-10.926 Y273.964
X-10.924
X-8.755 Y274.185
X-8.753 Y274.186
X-4.406 Y274.606
X-4.404
X-0.051 Y275.01
G2 X0.041 I0.046 J-0.498
G1 X4.418 Y274.609
X4.42
X8.79 Y274.192
X8.793 Y274.191
X10.973 Y273.971
X10.975
X13.151 Y273.74
X13.154
X15.325 Y273.497
X15.328 Y273.496
X17.493 Y273.238
X17.497
X19.654 Y272.963
X19.658 Y272.962
X21.808 Y272.669
X21.813
X23.954 Y272.354
X23.959 Y272.353
X26.091 Y272.015
X26.097 Y272.014
X28.217 Y271.651
X28.224 Y271.65
X30.333 Y271.259
X30.34 Y271.257
X32.437 Y270.838
X32.445 Y270.837
X34.529 Y270.385
X34.537 Y270.383
X36.607 Y269.898
X36.616 Y269.896
X38.671 Y269.375
X38.677 Y269.373
X39.699 Y269.099
X39.704 Y269.098
X40.722 Y268.814
X40.727 Y268.812
X41.74 Y268.518
X41.745 Y268.517
X42.754 Y268.212
X42.759 Y268.21
X43.764 Y267.895
X43.769 Y267.894
X44.769 Y267.569
X44.775 Y267.567
X45.771 Y267.23
X45.776 Y267.228
X46.767 Y266.88
X46.773 Y266.878
X47.759 Y266.518
X47.765 Y266.516
X48.746 Y266.145
X48.752 Y266.142
X49.728 Y265.758
X49.734 Y265.756
X50.705 Y265.361
X50.711 Y265.358
X51.677 Y264.949
X51.683 Y264.947
X52.644 Y264.526
X52.649 Y264.523
X53.605 Y264.09
X53.61 Y264.088
X54.561 Y263.644
X54.567 Y263.641
X55.513 Y263.184
X55.518 Y263.182
X56.459 Y262.714
X56.464 Y262.711
X57.4 Y262.232
X57.405 Y262.23
X58.337 Y261.741
X58.342 Y261.738
X59.27 Y261.237
X59.274 Y261.235
X60.197 Y260.725
X60.202 Y260.722
X61.121 Y260.201
X61.125 Y260.199
X62.04 Y259.669
X62.047 Y259.665
X63.865 Y258.575
X63.873 Y258.57
X65.676 Y257.445
X65.683 Y257.441
X67.472 Y256.283
X67.479 Y256.278
X69.255 Y255.087
X69.261 Y255.083
X71.025 Y253.863
X71.031 Y253.859
X72.783 Y252.611
X72.788 Y252.608
X74.529 Y251.336
X74.534 Y251.332
X76.266 Y250.035
X76.27 Y250.032
X77.994 Y248.715
X77.997 Y248.712
X79.713 Y247.376
X79.716 Y247.374
X81.424 Y246.021
X81.427 Y246.019
X83.129 Y244.651
X83.132 Y244.649
X84.828 Y243.268
X84.83 Y243.266
X86.523 Y241.875
X86.525 Y241.873
X89.9 Y239.067
X89.902 Y239.066
X93.27 Y236.243
G2 X93.335 Y236.178 I-0.321 J-0.383
G1 X96.108 Y232.81
X96.109 Y232.808
X98.866 Y229.433
X98.868 Y229.431
X100.235 Y227.738
X100.237 Y227.736
X101.593 Y226.04
X101.595 Y226.038
X102.939 Y224.336
X102.941 Y224.333
X104.271 Y222.626
X104.274 Y222.623
X105.588 Y220.909
X105.591 Y220.906
X106.886 Y219.184
X106.889 Y219.18
X108.164 Y217.449
X108.167 Y217.444
X109.419 Y215.705
X109.422 Y215.7
X110.649 Y213.95
X110.653 Y213.945
X111.854 Y212.184
X111.858 Y212.178
X113.029 Y210.405
X113.033 Y210.398
X114.174 Y208.613
X114.179 Y208.606
X115.287 Y206.807
X115.291 Y206.8
X116.364 Y204.986
X116.368 Y204.98
X116.891 Y204.068
X116.893 Y204.063
X117.406 Y203.147
X117.409 Y203.143
X117.913 Y202.222
X117.915 Y202.217
X118.408 Y201.293
X118.411 Y201.289
X118.894 Y200.36
X118.896 Y200.355
X119.369 Y199.422
X119.371 Y199.417
X119.833 Y198.48
X119.836 Y198.475
X120.287 Y197.533
X120.29 Y197.527
X120.729 Y196.58
X120.731 Y196.575
X121.159 Y195.624
X121.161 Y195.618
X121.577 Y194.663
X121.58 Y194.657
X121.984 Y193.695
X121.986 Y193.689
X122.378 Y192.723
X122.381 Y192.717
X122.76 Y191.746
X122.762 Y191.74
X123.13 Y190.764
X123.132 Y190.759
X123.488 Y189.778
X123.49 Y189.772
X123.835 Y188.786
X123.837 Y188.781
X124.171 Y187.791
X124.173 Y187.785
X124.495 Y186.79
X124.496 Y186.785
X124.809 Y185.786
X124.811 Y185.781
X125.112 Y184.778
X125.113 Y184.773
X125.405 Y183.765
X125.407 Y183.76
X125.689 Y182.749
X125.69 Y182.745
X125.963 Y181.729
X125.965 Y181.722
X126.482 Y179.68
X126.484 Y179.671
X126.966 Y177.614
X126.968 Y177.606
X127.417 Y175.536
X127.418 Y175.528
X127.836 Y173.445
X127.838 Y173.439
X128.228 Y171.344
X128.229 Y171.337
X128.591 Y169.231
X128.592 Y169.225
X128.929 Y167.109
X128.93 Y167.103
X129.245 Y164.977
Y164.972
X129.539 Y162.838
X129.54 Y162.834
X129.816 Y160.693
Y160.689
X130.075 Y158.54
X130.076 Y158.536
X130.321 Y156.383
Y156.379
X130.553 Y154.219
Y154.217
X130.775 Y152.053
X130.776 Y152.05
X131.197 Y147.713
Y147.711
X131.602 Y143.367
G2 X131.604 Y143.321 I-0.498 J-0.046
G1 Y77.715
G2 X131.104 Y77.215 I-0.5 J0.
G1 X37.354
G2 X36.854 Y77.715 I0. J0.5
G1 Y144.735
X36.731 Y146.033
X36.602 Y147.35
X36.463 Y148.661
X36.308 Y149.964
X36.134 Y151.256
X35.935 Y152.535
X35.707 Y153.802
X35.58 Y154.427
X35.443 Y155.049
X35.297 Y155.665
X35.141 Y156.277
X34.973 Y156.884
X34.794 Y157.485
X34.602 Y158.08
X34.397 Y158.67
X34.179 Y159.253
X33.947 Y159.83
X33.7 Y160.401
X33.439 Y160.966
X33.164 Y161.527
X32.876 Y162.082
X32.574 Y162.632
X32.261 Y163.178
X31.937 Y163.72
X31.601 Y164.259
X31.255 Y164.793
X30.901 Y165.322
X30.162 Y166.377
X29.394 Y167.42
X28.599 Y168.454
X27.782 Y169.482
X26.95 Y170.504
X26.106 Y171.523
X25.284 Y172.508
X24.299 Y173.329
X23.278 Y174.172
X22.255 Y175.005
X21.226 Y175.821
X20.192 Y176.615
X19.148 Y177.384
X18.092 Y178.122
X17.562 Y178.477
X17.027 Y178.822
X16.488 Y179.157
X15.946 Y179.482
X15.399 Y179.794
X14.848 Y180.096
X14.292 Y180.385
X13.732 Y180.659
X13.166 Y180.92
X12.595 Y181.166
X12.017 Y181.399
X11.434 Y181.617
X10.844 Y181.822
X10.248 Y182.012
X9.646 Y182.192
X9.04 Y182.36
X8.427 Y182.516
X7.81 Y182.662
X7.188 Y182.799
X6.563 Y182.925
X5.296 Y183.154
X4.015 Y183.352
X2.722 Y183.526
X1.419 Y183.68
X0.107 Y183.82
X-1.21 Y183.948
X-2.485 Y184.068
X-3.732 Y183.947
X-5.023 Y183.817
X-6.307 Y183.677
X-7.583 Y183.522
X-8.849 Y183.348
X-10.102 Y183.149
X-11.342 Y182.921
X-11.953 Y182.795
X-12.561 Y182.659
X-13.165 Y182.514
X-13.763 Y182.357
X-14.357 Y182.191
X-14.945 Y182.013
X-15.527 Y181.823
X-16.103 Y181.619
X-16.673 Y181.403
X-17.236 Y181.173
X-17.794 Y180.928
X-18.346 Y180.669
X-18.892 Y180.396
X-19.435 Y180.11
X-19.972 Y179.812
X-20.506 Y179.502
X-21.035 Y179.182
X-21.558 Y178.851
X-22.6 Y178.156
X-23.628 Y177.427
X-24.645 Y176.667
X-25.653 Y175.882
X-26.655 Y175.075
X-27.652 Y174.254
X-28.646 Y173.42
X-29.605 Y172.609
X-30.416 Y171.619
X-31.25 Y170.592
X-32.072 Y169.563
X-32.878 Y168.529
X-33.663 Y167.489
X-34.422 Y166.44
X-35.15 Y165.379
X-35.499 Y164.846
X-35.84 Y164.309
X-36.17 Y163.768
X-36.489 Y163.223
X-36.797 Y162.674
X-37.093 Y162.121
X-37.376 Y161.564
X-37.646 Y161.001
X-37.902 Y160.433
X-38.143 Y159.861
X-38.37 Y159.281
X-38.583 Y158.697
X-38.783 Y158.104
X-38.97 Y157.508
X-39.145 Y156.905
X-39.308 Y156.297
X-39.46 Y155.684
X-39.602 Y155.067
X-39.857 Y153.815
X-40.078 Y152.549
X-40.27 Y151.269
X-40.437 Y149.976
X-40.584 Y148.673
X-40.716 Y147.362
X-40.839 Y146.045
X-40.955 Y144.746
Y-142.686
X-40.842 Y-143.982
X-40.723 Y-145.296
X-40.593 Y-146.603
X-40.449 Y-147.902
X-40.285 Y-149.191
X-40.097 Y-150.467
X-39.879 Y-151.73
X-39.627 Y-152.978
X-39.487 Y-153.592
X-39.336 Y-154.203
X-39.175 Y-154.809
X-39.001 Y-155.41
X-38.816 Y-156.005
X-38.618 Y-156.594
X-38.407 Y-157.178
X-38.182 Y-157.755
X-37.942 Y-158.326
X-37.687 Y-158.891
X-37.419 Y-159.452
X-37.137 Y-160.007
X-36.843 Y-160.558
X-36.536 Y-161.104
X-36.218 Y-161.647
X-35.889 Y-162.186
X-35.549 Y-162.721
X-35.201 Y-163.251
X-34.474 Y-164.307
X-33.717 Y-165.35
X-32.933 Y-166.386
X-32.128 Y-167.414
X-31.306 Y-168.439
X-30.473 Y-169.46
X-29.664 Y-170.444
X-28.701 Y-171.245
X-27.702 Y-172.07
X-26.7 Y-172.883
X-25.693 Y-173.681
X-24.679 Y-174.457
X-23.658 Y-175.208
X-22.626 Y-175.928
X-21.58 Y-176.613
X-21.054 Y-176.94
X-20.523 Y-177.257
X-19.988 Y-177.562
X-19.449 Y-177.856
X-18.905 Y-178.137
X-18.356 Y-178.406
X-17.802 Y-178.66
X-17.243 Y-178.901
X-16.679 Y-179.127
X-16.107 Y-179.339
X-15.53 Y-179.539
X-14.947 Y-179.725
X-14.358 Y-179.9
X-13.764 Y-180.064
X-13.165 Y-180.216
X-12.563 Y-180.358
X-11.338 Y-180.614
X-10.1 Y-180.837
X-8.847 Y-181.03
X-7.582 Y-181.199
X-6.307 Y-181.348
X-5.023 Y-181.483
X-3.733 Y-181.608
X-2.485 Y-181.725
X-1.208 Y-181.611
X0.111 Y-181.488
X1.423 Y-181.357
X2.727 Y-181.21
X4.02 Y-181.043
X5.302 Y-180.851
X6.57 Y-180.632
X7.822 Y-180.376
X8.439 Y-180.235
X9.053 Y-180.083
X9.662 Y-179.919
X10.265 Y-179.745
X10.863 Y-179.558
X11.455 Y-179.359
X12.041 Y-179.146
X12.62 Y-178.92
X13.194 Y-178.678
X13.762 Y-178.422
X14.325 Y-178.153
X14.884 Y-177.869
X15.437 Y-177.574
X15.987 Y-177.266
X16.533 Y-176.948
X17.074 Y-176.617
X17.612 Y-176.277
X18.146 Y-175.927
X19.208 Y-175.2
X20.258 Y-174.441
X21.3 Y-173.658
X22.335 Y-172.851
X23.366 Y-172.029
X24.394 Y-171.196
X25.385 Y-170.387
X26.203 Y-169.407
X27.045 Y-168.391
X27.876 Y-167.371
X28.69 Y-166.348
X29.483 Y-165.317
X30.249 Y-164.278
X30.985 Y-163.227
X31.338 Y-162.699
X31.682 Y-162.166
X32.016 Y-161.628
X32.338 Y-161.088
X32.649 Y-160.543
X32.948 Y-159.994
X33.234 Y-159.44
X33.507 Y-158.881
X33.766 Y-158.317
X34.01 Y-157.747
X34.239 Y-157.172
X34.454 Y-156.589
X34.656 Y-156.001
X34.845 Y-155.407
X35.022 Y-154.807
X35.187 Y-154.201
X35.341 Y-153.59
X35.484 Y-152.975
X35.618 Y-152.355
X35.742 Y-151.731
X35.966 Y-150.467
X36.16 Y-149.19
X36.329 Y-147.9
X36.478 Y-146.6
X36.612 Y-145.291
X36.736 Y-143.977
X36.854 Y-142.68
Y-64.742
G2 X37.354 Y-64.242 I0.5 J0.
G1 X131.104
G2 X131.604 Y-64.742 I0. J-0.5
G1 Y-143.564
G2 X131.602 Y-143.609 I-0.5 J0.
G1 X131.203 Y-147.977
Y-147.979
X130.787 Y-152.341
X130.786 Y-152.344
X130.567 Y-154.52
Y-154.523
X130.337 Y-156.695
Y-156.698
X130.095 Y-158.864
X130.094 Y-158.867
X129.837 Y-161.028
Y-161.032
X129.563 Y-163.185
X129.562 Y-163.189
X129.27 Y-165.335
Y-165.341
X128.956 Y-167.478
X128.955 Y-167.483
X128.618 Y-169.61
X128.617 Y-169.616
X128.256 Y-171.733
X128.255 Y-171.74
X127.866 Y-173.845
X127.864 Y-173.852
X127.445 Y-175.946
X127.444 Y-175.954
X126.995 Y-178.034
X126.993 Y-178.042
X126.509 Y-180.108
X126.507 Y-180.116
X125.989 Y-182.168
X125.987 Y-182.176
X125.713 Y-183.196
X125.712 Y-183.2
X125.429 Y-184.216
X125.427 Y-184.221
X125.134 Y-185.233
X125.133 Y-185.238
X124.83 Y-186.245
X124.828 Y-186.25
X124.514 Y-187.253
X124.513 Y-187.258
X124.189 Y-188.257
X124.187 Y-188.263
X123.851 Y-189.257
X123.849 Y-189.262
X123.502 Y-190.252
X123.5 Y-190.258
X123.142 Y-191.242
X123.14 Y-191.248
X122.77 Y-192.228
X122.768 Y-192.233
X122.386 Y-193.208
X122.383 Y-193.215
X121.988 Y-194.185
X121.986 Y-194.19
X121.58 Y-195.154
X121.577 Y-195.16
X121.157 Y-196.12
X121.155 Y-196.126
X120.724 Y-197.08
X120.721 Y-197.085
X120.278 Y-198.035
X120.275 Y-198.04
X119.821 Y-198.985
X119.818 Y-198.99
X119.352 Y-199.93
X119.349 Y-199.935
X118.872 Y-200.87
X118.87 Y-200.875
X118.382 Y-201.806
X118.379 Y-201.811
X117.88 Y-202.737
X117.878 Y-202.742
X117.369 Y-203.664
X117.366 Y-203.668
X116.847 Y-204.586
X116.845 Y-204.59
X116.317 Y-205.504
X116.313 Y-205.51
X115.228 Y-207.327
X115.223 Y-207.335
X114.102 Y-209.136
X114.098 Y-209.143
X112.943 Y-210.93
X112.939 Y-210.937
X111.753 Y-212.712
X111.749 Y-212.718
X110.533 Y-214.48
X110.529 Y-214.486
X109.286 Y-216.236
X109.282 Y-216.24
X108.014 Y-217.98
X108.011 Y-217.985
X106.719 Y-219.716
X106.716 Y-219.72
X105.403 Y-221.441
X105.4 Y-221.445
X104.069 Y-223.159
X104.066 Y-223.162
X102.717 Y-224.869
X102.715 Y-224.872
X101.352 Y-226.573
X101.35 Y-226.575
X99.975 Y-228.27
X99.973 Y-228.272
X98.587 Y-229.963
X98.585 Y-229.965
X95.789 Y-233.338
X95.788 Y-233.34
X92.976 Y-236.706
G2 X92.91 Y-236.771 I-0.384 J0.321
G1 X89.54 Y-239.546
X89.539 Y-239.547
X86.162 Y-242.307
X86.16 Y-242.309
X84.467 Y-243.677
X84.466 Y-243.678
X82.768 Y-245.036
X82.766 Y-245.038
X81.064 Y-246.383
X81.061 Y-246.385
X79.353 Y-247.717
X79.35 Y-247.72
X77.635 Y-249.034
X77.631 Y-249.037
X75.909 Y-250.333
X75.905 Y-250.335
X74.174 Y-251.611
X74.169 Y-251.615
X72.429 Y-252.867
X72.424 Y-252.87
X70.673 Y-254.098
X70.668 Y-254.102
X68.906 Y-255.303
X68.9 Y-255.307
X67.126 Y-256.479
X67.12 Y-256.483
X65.334 Y-257.624
X65.327 Y-257.629
X63.527 Y-258.737
X63.519 Y-258.741
X61.705 Y-259.814
X61.699 Y-259.818
X60.786 Y-260.341
X60.781 Y-260.343
X59.865 Y-260.856
X59.86 Y-260.859
X58.939 Y-261.362
X58.935 Y-261.364
X58.01 Y-261.858
X58.005 Y-261.861
X57.076 Y-262.344
X57.071 Y-262.346
X56.137 Y-262.818
X56.132 Y-262.821
X55.194 Y-263.282
X55.19 Y-263.284
X54.247 Y-263.735
X54.241 Y-263.738
X53.294 Y-264.177
X53.288 Y-264.179
X52.336 Y-264.606
X52.331 Y-264.609
X51.374 Y-265.025
X51.368 Y-265.027
X50.406 Y-265.43
X50.4 Y-265.433
X49.433 Y-265.824
X49.427 Y-265.826
X48.455 Y-266.205
X48.45 Y-266.207
X47.473 Y-266.574
X47.467 Y-266.576
X46.485 Y-266.932
X46.48 Y-266.934
X45.493 Y-267.278
X45.488 Y-267.28
X44.497 Y-267.613
X44.492 Y-267.615
X43.496 Y-267.937
X43.491 Y-267.938
X42.491 Y-268.25
X42.486 Y-268.252
X41.482 Y-268.553
X41.477 Y-268.554
X40.469 Y-268.845
X40.464 Y-268.847
X39.452 Y-269.128
X39.447 Y-269.129
X38.431 Y-269.401
X38.424 Y-269.403
X36.38 Y-269.919
X36.372 Y-269.921
X34.313 Y-270.401
X34.305 Y-270.403
X32.234 Y-270.851
X32.226 Y-270.852
X30.141 Y-271.268
X30.134 Y-271.27
X28.038 Y-271.658
X28.031 Y-271.659
X25.924 Y-272.02
X25.918 Y-272.021
X23.8 Y-272.357
X23.794 Y-272.358
X21.667 Y-272.671
X21.662
X19.527 Y-272.963
X19.522 Y-272.964
X17.379 Y-273.238
X17.375
X15.225 Y-273.496
X15.221 Y-273.497
X13.065 Y-273.739
X13.062
X10.901 Y-273.97
X10.899
X8.733 Y-274.19
X8.731 Y-274.191
X4.39 Y-274.609
X4.388
X0.041 Y-275.01
G2 X-0.049 I-0.046 J0.498
G1 X-4.416 Y-274.619
X-4.418
X-8.778 Y-274.212
X-8.78
X-10.956 Y-273.997
X-10.958 Y-273.996
X-13.129 Y-273.77
X-13.132
X-15.298 Y-273.532
X-15.301
X-17.461 Y-273.28
X-17.465 Y-273.279
X-19.618 Y-273.009
X-19.622
X-21.768 Y-272.722
X-21.773 Y-272.721
X-23.91 Y-272.412
X-23.915 Y-272.411
X-26.042 Y-272.079
X-26.048 Y-272.078
X-28.165 Y-271.722
X-28.172 Y-271.721
X-30.278 Y-271.338
X-30.285 Y-271.337
X-32.379 Y-270.924
X-32.387 Y-270.922
X-34.468 Y-270.478
X-34.476 Y-270.476
X-36.544 Y-269.999
X-36.552 Y-269.997
X-38.605 Y-269.485
X-38.612 Y-269.483
X-39.633 Y-269.213
X-39.638 Y-269.212
X-40.654 Y-268.932
X-40.659 Y-268.931
X-41.672 Y-268.641
X-41.676 Y-268.639
X-42.685 Y-268.34
X-42.69 Y-268.339
X-43.695 Y-268.029
X-43.7 Y-268.027
X-44.7 Y-267.706
X-44.705 Y-267.704
X-45.701 Y-267.372
X-45.706 Y-267.37
X-46.697 Y-267.027
X-46.702 Y-267.026
X-47.688 Y-266.672
X-47.694 Y-266.669
X-48.675 Y-266.303
X-48.681 Y-266.301
X-49.658 Y-265.923
X-49.663 Y-265.921
X-50.635 Y-265.531
X-50.641 Y-265.528
X-51.607 Y-265.125
X-51.613 Y-265.123
X-52.574 Y-264.708
X-52.58 Y-264.706
X-53.536 Y-264.279
X-53.541 Y-264.276
X-54.493 Y-263.838
X-54.499 Y-263.835
X-55.445 Y-263.384
X-55.45 Y-263.382
X-56.392 Y-262.921
X-56.397 Y-262.918
X-57.335 Y-262.445
X-57.339 Y-262.443
X-58.272 Y-261.96
X-58.277 Y-261.957
X-59.206 Y-261.463
X-59.211 Y-261.461
X-60.135 Y-260.957
X-60.139 Y-260.955
X-61.06 Y-260.441
X-61.064 Y-260.438
X-61.981 Y-259.914
X-61.987 Y-259.91
X-63.808 Y-258.834
X-63.816 Y-258.83
X-65.622 Y-257.719
X-65.629 Y-257.714
X-67.422 Y-256.569
X-67.429 Y-256.565
X-69.209 Y-255.389
X-69.215 Y-255.385
X-70.982 Y-254.179
X-70.988 Y-254.175
X-72.744 Y-252.942
X-72.749 Y-252.939
X-74.496 Y-251.681
X-74.5 Y-251.677
X-76.237 Y-250.396
X-76.241 Y-250.393
X-77.969 Y-249.09
X-77.973 Y-249.088
X-79.693 Y-247.767
X-79.696 Y-247.764
X-81.409 Y-246.426
X-81.412 Y-246.424
X-83.119 Y-245.072
X-83.122 Y-245.07
X-84.824 Y-243.705
X-84.826 Y-243.703
X-86.524 Y-242.327
X-86.526 Y-242.326
X-89.912 Y-239.551
X-89.913 Y-239.55
X-93.293 Y-236.759
G2 X-93.359 Y-236.692 I0.318 J0.386
G1 X-96.146 Y-233.323
X-96.147 Y-233.321
X-98.917 Y-229.945
X-98.919 Y-229.943
X-100.293 Y-228.25
X-100.294 Y-228.248
X-101.657 Y-226.551
X-101.659 Y-226.549
X-103.01 Y-224.847
X-103.012 Y-224.844
X-104.348 Y-223.136
X-104.35 Y-223.133
X-105.669 Y-221.417
X-105.672 Y-221.413
X-106.972 Y-219.69
X-106.975 Y-219.686
X-108.255 Y-217.955
X-108.258 Y-217.951
X-109.514 Y-216.21
X-109.518 Y-216.205
X-110.75 Y-214.454
X-110.754 Y-214.448
X-111.958 Y-212.685
X-111.962 Y-212.679
X-113.137 Y-210.905
X-113.141 Y-210.898
X-114.285 Y-209.11
X-114.29 Y-209.103
X-115.4 Y-207.302
X-115.404 Y-207.295
X-116.479 Y-205.479
X-116.483 Y-205.472
X-117.006 Y-204.558
X-117.008 Y-204.554
X-117.522 Y-203.637
X-117.525 Y-203.633
X-118.029 Y-202.711
X-118.031 Y-202.706
X-118.524 Y-201.78
X-118.527 Y-201.776
X-119.011 Y-200.846
X-119.013 Y-200.84
X-119.485 Y-199.905
X-119.488 Y-199.901
X-119.95 Y-198.962
X-119.952 Y-198.956
X-120.402 Y-198.012
X-120.405 Y-198.007
X-120.844 Y-197.058
X-120.846 Y-197.052
X-121.273 Y-196.099
X-121.276 Y-196.094
X-121.691 Y-195.135
X-121.693 Y-195.129
X-122.095 Y-194.166
X-122.098 Y-194.16
X-122.489 Y-193.192
X-122.491 Y-193.186
X-122.869 Y-192.212
X-122.871 Y-192.206
X-123.237 Y-191.227
X-123.239 Y-191.222
X-123.594 Y-190.239
X-123.596 Y-190.233
X-123.939 Y-189.245
X-123.941 Y-189.24
X-124.273 Y-188.248
X-124.275 Y-188.242
X-124.596 Y-187.245
X-124.598 Y-187.24
X-124.908 Y-186.238
X-124.909 Y-186.233
X-125.209 Y-185.227
X-125.211 Y-185.222
X-125.501 Y-184.212
X-125.502 Y-184.207
X-125.782 Y-183.193
X-125.783 Y-183.189
X-126.054 Y-182.172
X-126.056 Y-182.164
X-126.569 Y-180.116
X-126.571 Y-180.108
X-127.049 Y-178.046
X-127.051 Y-178.038
X-127.496 Y-175.963
X-127.497 Y-175.955
X-127.91 Y-173.867
X-127.912 Y-173.86
X-128.297 Y-171.759
X-128.298 Y-171.752
X-128.655 Y-169.641
X-128.656 Y-169.636
X-128.989 Y-167.514
X-128.99 Y-167.508
X-129.3 Y-165.377
X-129.301 Y-165.372
X-129.59 Y-163.232
Y-163.227
X-129.86 Y-161.08
X-129.861 Y-161.077
X-130.115 Y-158.923
Y-158.919
X-130.354 Y-156.759
Y-156.756
X-130.581 Y-154.59
X-130.582 Y-154.588
X-130.798 Y-152.419
Y-152.416
X-131.208 Y-148.067
Y-148.065
X-131.602 Y-143.71
G2 X-131.604 Y-143.665 I0.498 J0.045
G1 Y-65.629
G3 X-131.704 Y-65.529 I-0.1 J0.
G1 X-131.804
X-131.842 Z-0.992
X-131.875 Z-0.971
X-131.896 Z-0.938
X-131.904 Z-0.9
G0 Z15.
M5
G53 Z0.
M30
