(Letter_I)
(T1  D=1. CR=0.5 - ZMIN=-1. - ball end mill)
G90
G0 G53 Z0.

(2D Contour21)
T1 M6 (ball end mill D=1. drag knife)
S47747 M3
G64
G54
G43 H1
G0 X-133.8 Y-216.111
Z15.
Z5.
G1 Z1. F9549.3
Z-0.9
X-133.792 Z-0.938
X-133.771 Z-0.971
X-133.738 Z-0.992
X-133.7 Z-1.
X-133.6
G3 X-133.5 Y-216.011 I0. J0.1
G1 Y-177.773
G2 X-133. Y-177.273 I0.5 J0.
G1 X-42.803
Y176.453
X-126.179
G2 X-126.679 Y176.953 I0. J0.5
G1 Y267.773
G2 X-126.179 Y268.273 I0.5 J0.
G1 X132.398
G2 X132.898 Y267.773 I0. J-0.5
G1 Y176.953
G2 X132.398 Y176.453 I-0.5 J0.
G1 X49.31
Y-177.273
X133.
G2 X133.5 Y-177.773 I0. J-0.5
G1 Y-267.773
G2 X133. Y-268.273 I-0.5 J0.
G1 X-133.
G2 X-133.5 Y-267.773 I0. J0.5
G1 Y-216.011
G3 X-133.6 Y-215.911 I-0.1 J0.
G1 X-133.7
X-133.738 Z-0.992
X-133.771 Z-0.971
X-133.792 Z-0.938
X-133.8 Z-0.9
G0 Z15.
M5
G53 Z0.
M30
