(Letter_S)
(T1  D=1. CR=0.5 - ZMIN=-1. - ball end mill)
G90
G0 G53 Z0.

(2D Contour21)
T1 M6 (ball end mill D=1. drag knife)
S47747 M3
G64
G54
G43 H1
G0 X-98.605 Y-111.051
Z15.
Z5.
G1 Z1. F9549.3
Z-0.9
Y-111.058 Z-0.938
X-98.603 Y-111.08 Z-0.971
X-98.601 Y-111.112 Z-0.992
X-98.598 Y-111.151 Z-1.
X-98.592 Y-111.25
G3 X-98.486 Y-111.344 I0.1 J0.007
G1 X-50.375 Y-108.188
G2 X-49.847 Y-108.623 I0.033 J-0.499
G1 X-49.433 Y-111.808
X-49.012 Y-114.988
X-48.575 Y-118.162
X-48.114 Y-121.324
X-47.62 Y-124.475
X-47.359 Y-126.042
X-47.086 Y-127.606
X-46.801 Y-129.165
X-46.504 Y-130.719
X-46.192 Y-132.267
X-45.865 Y-133.809
X-45.522 Y-135.343
X-45.161 Y-136.871
X-44.783 Y-138.393
X-44.386 Y-139.907
X-43.968 Y-141.412
X-43.529 Y-142.909
X-43.068 Y-144.396
X-42.584 Y-145.876
X-42.076 Y-147.344
X-41.543 Y-148.804
X-40.983 Y-150.254
X-40.397 Y-151.692
X-39.783 Y-153.122
X-39.144 Y-154.541
X-38.481 Y-155.952
X-37.795 Y-157.355
X-37.087 Y-158.751
X-36.359 Y-160.138
X-35.612 Y-161.52
X-34.848 Y-162.895
X-34.067 Y-164.264
X-33.271 Y-165.629
X-32.461 Y-166.988
X-31.64 Y-168.344
X-29.964 Y-171.044
X-28.256 Y-173.734
X-26.525 Y-176.417
X-24.824 Y-179.035
X-23.94 Y-179.774
X-22.999 Y-180.555
X-22.055 Y-181.323
X-21.107 Y-182.076
X-20.152 Y-182.807
X-19.19 Y-183.512
X-18.217 Y-184.184
X-17.728 Y-184.506
X-17.234 Y-184.82
X-16.738 Y-185.122
X-16.238 Y-185.413
X-15.733 Y-185.693
X-15.225 Y-185.961
X-14.713 Y-186.217
X-14.196 Y-186.457
X-13.674 Y-186.685
X-13.147 Y-186.898
X-12.614 Y-187.096
X-12.076 Y-187.281
X-11.531 Y-187.451
X-10.981 Y-187.61
X-10.425 Y-187.755
X-9.864 Y-187.89
X-9.298 Y-188.012
X-8.729 Y-188.124
X-7.572 Y-188.321
X-6.401 Y-188.482
X-5.215 Y-188.613
X-4.018 Y-188.72
X-2.81 Y-188.806
X-1.594 Y-188.878
X-0.372 Y-188.94
X0.803 Y-188.994
X2.588 Y-188.712
X4.415 Y-188.414
X6.231 Y-188.1
X8.031 Y-187.761
X8.921 Y-187.581
X9.806 Y-187.39
X10.685 Y-187.19
X11.555 Y-186.978
X12.419 Y-186.754
X13.273 Y-186.517
X14.119 Y-186.266
X14.954 Y-186.
X15.779 Y-185.717
X16.594 Y-185.417
X17.396 Y-185.1
X18.186 Y-184.762
X18.964 Y-184.405
X19.728 Y-184.026
X20.479 Y-183.625
X21.215 Y-183.201
X21.938 Y-182.753
X22.649 Y-182.282
X23.347 Y-181.789
X24.034 Y-181.276
X24.71 Y-180.741
X25.375 Y-180.187
X26.031 Y-179.615
X26.677 Y-179.026
X27.315 Y-178.42
X27.945 Y-177.799
X28.567 Y-177.163
X29.182 Y-176.514
X29.79 Y-175.853
X30.392 Y-175.181
X31.582 Y-173.803
X32.755 Y-172.393
X33.915 Y-170.957
X35.067 Y-169.502
X36.184 Y-168.079
X36.804 Y-166.824
X37.442 Y-165.523
X38.07 Y-164.222
X38.684 Y-162.918
X39.279 Y-161.611
X39.851 Y-160.299
X40.395 Y-158.982
X40.907 Y-157.659
X41.384 Y-156.326
X41.606 Y-155.66
X41.818 Y-154.988
X42.019 Y-154.315
X42.208 Y-153.639
X42.384 Y-152.959
X42.549 Y-152.276
X42.703 Y-151.591
X42.846 Y-150.902
X42.979 Y-150.21
X43.102 Y-149.517
X43.32 Y-148.117
X43.504 Y-146.709
X43.658 Y-145.292
X43.786 Y-143.865
X43.891 Y-142.433
X43.977 Y-140.993
X44.048 Y-139.548
X44.107 Y-138.1
X44.159 Y-136.648
X44.206 Y-135.238
X43.783 Y-132.375
X43.342 Y-129.475
X42.879 Y-126.586
X42.636 Y-125.148
X42.383 Y-123.715
X42.119 Y-122.287
X41.842 Y-120.866
X41.551 Y-119.451
X41.245 Y-118.044
X40.922 Y-116.645
X40.581 Y-115.254
X40.221 Y-113.873
X39.839 Y-112.501
X39.436 Y-111.141
X39.008 Y-109.791
X38.556 Y-108.452
X38.077 Y-107.126
X37.57 Y-105.813
X37.034 Y-104.514
X36.468 Y-103.228
X35.873 Y-101.955
X35.249 Y-100.693
X34.598 Y-99.444
X33.921 Y-98.205
X33.219 Y-96.976
X32.493 Y-95.758
X31.744 Y-94.549
X30.975 Y-93.349
X30.185 Y-92.157
X29.375 Y-90.974
X28.548 Y-89.798
X27.704 Y-88.628
X26.845 Y-87.465
X25.971 Y-86.308
X25.084 Y-85.156
X24.185 Y-84.01
X23.275 Y-82.868
X21.426 Y-80.593
X19.549 Y-78.33
X17.651 Y-76.075
X15.76 Y-73.841
X12.773 Y-70.974
X9.768 Y-68.087
X6.764 Y-65.2
X3.762 Y-62.311
X0.761 Y-59.419
X-2.237 Y-56.525
X-5.231 Y-53.628
X-8.222 Y-50.726
X-11.209 Y-47.821
X-14.191 Y-44.91
X-17.168 Y-41.994
X-20.14 Y-39.073
X-23.108 Y-36.148
X-26.072 Y-33.219
X-29.032 Y-30.286
X-31.989 Y-27.35
X-34.943 Y-24.411
X-37.894 Y-21.469
X-40.843 Y-18.525
X-43.79 Y-15.58
X-46.736 Y-12.633
X-49.68 Y-9.684
X-52.624 Y-6.736
X-55.559 Y-3.795
X-58.088 Y-1.482
X-60.621 Y0.841
X-60.622 Y0.842
X-63.147 Y3.172
X-63.148 Y3.174
X-65.66 Y5.515
X-65.663 Y5.517
X-68.158 Y7.871
X-68.161 Y7.874
X-70.636 Y10.246
X-70.639 Y10.249
X-73.089 Y12.642
X-73.092 Y12.645
X-74.306 Y13.85
X-74.308 Y13.852
X-75.515 Y15.064
X-75.517 Y15.066
X-76.715 Y16.285
X-76.717 Y16.288
X-77.907 Y17.514
X-77.909 Y17.516
X-79.089 Y18.75
X-79.092 Y18.753
X-80.262 Y19.995
X-80.265 Y19.998
X-81.425 Y21.249
X-81.427 Y21.252
X-82.576 Y22.512
X-82.579 Y22.516
X-83.717 Y23.785
X-83.72 Y23.789
X-84.845 Y25.068
X-84.849 Y25.072
X-85.962 Y26.362
X-85.965 Y26.366
X-87.065 Y27.667
X-87.069 Y27.671
X-88.155 Y28.983
X-88.159 Y28.987
X-89.232 Y30.311
X-89.235 Y30.315
X-90.294 Y31.65
X-90.297 Y31.654
X-91.345 Y32.999
X-91.348 Y33.002
X-92.383 Y34.358
X-92.386 Y34.361
X-93.41 Y35.726
X-93.412 Y35.729
X-94.426 Y37.103
X-94.428 Y37.106
X-95.432 Y38.488
X-95.434 Y38.491
X-96.428 Y39.88
X-96.43 Y39.883
X-97.416 Y41.28
X-97.419 Y41.283
X-99.367 Y44.096
X-99.37 Y44.101
X-101.293 Y46.936
X-101.295 Y46.939
X-103.196 Y49.792
X-103.198 Y49.795
X-105.083 Y52.661
X-105.084 Y52.662
X-106.959 Y55.537
X-108.829 Y58.418
G2 X-108.866 Y58.485 I0.419 J0.272
G1 X-110.287 Y61.643
Y61.645
X-111.7 Y64.805
X-111.701 Y64.807
X-113.098 Y67.972
X-113.1 Y67.976
X-114.471 Y71.147
X-114.473 Y71.151
X-115.812 Y74.33
X-115.814 Y74.334
X-116.468 Y75.928
X-116.469 Y75.931
X-117.112 Y77.527
X-117.113 Y77.53
X-117.743 Y79.13
X-117.745 Y79.133
X-118.362 Y80.736
X-118.363 Y80.74
X-118.966 Y82.346
X-118.968 Y82.35
X-119.555 Y83.96
X-119.556 Y83.965
X-120.126 Y85.579
X-120.128 Y85.584
X-120.681 Y87.202
X-120.683 Y87.207
X-121.217 Y88.83
X-121.219 Y88.836
X-121.734 Y90.464
X-121.736 Y90.47
X-122.23 Y92.103
X-122.231 Y92.109
X-122.703 Y93.747
X-122.705 Y93.754
X-123.154 Y95.398
X-123.156 Y95.405
X-123.582 Y97.054
X-123.584 Y97.062
X-123.985 Y98.718
X-123.987 Y98.725
X-124.364 Y100.386
X-124.365 Y100.393
X-124.718 Y102.061
X-124.719 Y102.068
X-125.05 Y103.741
X-125.052 Y103.747
X-125.362 Y105.425
X-125.363 Y105.431
X-125.653 Y107.115
X-125.654 Y107.121
X-125.924 Y108.809
Y108.814
X-126.178 Y110.506
Y110.511
X-126.414 Y112.208
X-126.415 Y112.213
X-126.635 Y113.914
Y113.918
X-126.84 Y115.622
X-126.841 Y115.626
X-127.033 Y117.334
Y117.338
X-127.211 Y119.049
X-127.212 Y119.052
X-127.379 Y120.765
Y120.77
X-127.683 Y124.205
Y124.21
X-127.952 Y127.654
X-127.953 Y127.658
X-128.197 Y131.108
Y131.11
X-128.424 Y134.563
Y134.564
X-128.643 Y138.02
G2 X-128.642 Y138.096 I0.499 J0.032
G1 X-128.141 Y143.734
Y143.736
X-127.616 Y149.362
Y149.365
X-127.337 Y152.17
X-127.336 Y152.173
X-127.041 Y154.97
Y154.974
X-126.728 Y157.762
X-126.727 Y157.766
X-126.392 Y160.544
Y160.548
X-126.033 Y163.313
X-126.032 Y163.319
X-125.645 Y166.071
X-125.644 Y166.076
X-125.227 Y168.813
X-125.226 Y168.82
X-124.774 Y171.541
X-124.773 Y171.546
X-124.534 Y172.899
Y172.903
X-124.285 Y174.252
X-124.284 Y174.255
X-124.026 Y175.599
X-124.025 Y175.604
X-123.755 Y176.943
X-123.754 Y176.946
X-123.475 Y178.279
X-123.474 Y178.284
X-123.183 Y179.612
X-123.182 Y179.617
X-122.879 Y180.94
X-122.878 Y180.944
X-122.564 Y182.261
X-122.563 Y182.266
X-122.236 Y183.576
X-122.235 Y183.581
X-121.896 Y184.886
X-121.894 Y184.891
X-121.541 Y186.189
X-121.54 Y186.194
X-121.175 Y187.485
X-121.173 Y187.491
X-120.793 Y188.776
X-120.792 Y188.781
X-120.398 Y190.059
X-120.396 Y190.065
X-119.988 Y191.335
X-119.986 Y191.341
X-119.563 Y192.604
X-119.561 Y192.61
X-119.122 Y193.866
X-119.12 Y193.872
X-118.666 Y195.12
X-118.663 Y195.127
X-118.192 Y196.367
X-118.19 Y196.372
X-117.704 Y197.604
X-117.701 Y197.611
X-117.197 Y198.835
X-117.195 Y198.842
X-116.674 Y200.057
X-116.671 Y200.064
X-116.132 Y201.271
X-116.128 Y201.278
X-115.571 Y202.475
X-115.568 Y202.482
X-114.993 Y203.671
X-114.99 Y203.678
X-114.396 Y204.858
X-114.392 Y204.865
X-113.78 Y206.035
X-113.776 Y206.042
X-113.145 Y207.204
X-113.142 Y207.21
X-112.494 Y208.362
X-112.49 Y208.368
X-111.824 Y209.513
X-111.82 Y209.52
X-111.137 Y210.655
X-111.134 Y210.66
X-110.435 Y211.788
X-110.431 Y211.794
X-109.715 Y212.914
X-109.712 Y212.92
X-108.981 Y214.032
X-108.977 Y214.037
X-108.23 Y215.142
X-108.227 Y215.147
X-107.466 Y216.244
X-107.462 Y216.249
X-106.685 Y217.339
X-106.682 Y217.344
X-105.892 Y218.427
X-105.889 Y218.431
X-105.085 Y219.507
X-105.081 Y219.512
X-104.263 Y220.582
X-104.26 Y220.586
X-103.43 Y221.649
X-103.427 Y221.653
X-102.584 Y222.711
X-102.581 Y222.715
X-101.726 Y223.766
X-101.723 Y223.769
X-100.856 Y224.815
X-100.853 Y224.819
X-99.975 Y225.859
X-99.972 Y225.862
X-99.083 Y226.896
X-99.08 Y226.899
X-98.181 Y227.929
X-98.178 Y227.932
X-97.268 Y228.956
X-97.265 Y228.96
X-95.417 Y230.996
X-95.412 Y231.001
X-93.528 Y233.018
X-93.524 Y233.023
X-91.608 Y235.025
X-91.604 Y235.029
X-89.659 Y237.016
X-89.655 Y237.019
X-87.684 Y238.994
X-87.681 Y238.997
X-85.687 Y240.96
X-85.685 Y240.963
X-83.672 Y242.918
X-83.669 Y242.92
X-81.64 Y244.866
X-81.638 Y244.868
X-79.596 Y246.807
X-79.595 Y246.808
X-77.543 Y248.743
X-77.542 Y248.744
X-73.422 Y252.607
G2 X-73.348 Y252.664 I0.342 J-0.365
G1 X-70.6 Y254.409
X-70.599 Y254.41
X-67.848 Y256.143
X-67.844 Y256.145
X-65.085 Y257.854
X-65.082 Y257.856
X-63.698 Y258.698
X-63.695 Y258.7
X-62.308 Y259.531
X-62.305 Y259.533
X-60.914 Y260.352
X-60.91 Y260.354
X-59.515 Y261.159
X-59.511 Y261.161
X-58.111 Y261.952
X-58.106 Y261.955
X-56.7 Y262.728
X-56.695 Y262.731
X-55.284 Y263.486
X-55.278 Y263.489
X-53.86 Y264.225
X-53.854 Y264.228
X-52.43 Y264.942
X-52.423 Y264.945
X-50.991 Y265.637
X-50.984 Y265.641
X-49.544 Y266.308
X-49.537 Y266.311
X-48.089 Y266.953
X-48.08 Y266.957
X-46.624 Y267.571
X-46.615 Y267.574
X-45.149 Y268.16
G2 X-45.139 Y268.164 I0.186 J-0.464
G1 X-43.663 Y268.719
G2 X-43.654 Y268.723 I0.176 J-0.468
G1 X-42.168 Y269.246
G2 X-42.157 Y269.249 I0.166 J-0.472
G1 X-40.661 Y269.739
G2 X-40.65 Y269.742 I0.156 J-0.475
G1 X-39.143 Y270.2
G2 X-39.133 Y270.203 I0.145 J-0.478
G1 X-37.616 Y270.63
X-37.607 Y270.633
X-36.08 Y271.03
X-36.071 Y271.032
X-34.536 Y271.401
X-34.526 Y271.403
X-32.982 Y271.744
X-32.974 Y271.746
X-31.421 Y272.062
X-31.413 Y272.064
X-29.852 Y272.354
X-29.845 Y272.355
X-28.277 Y272.623
X-28.269 Y272.624
X-26.694 Y272.869
X-26.688 Y272.87
X-25.106 Y273.095
X-25.1 Y273.096
X-23.511 Y273.302
X-23.505 Y273.303
X-21.911 Y273.49
X-21.906
X-20.306 Y273.66
X-20.302 Y273.661
X-18.697 Y273.816
X-18.693
X-17.083 Y273.956
X-17.08
X-15.467 Y274.084
X-15.463 Y274.085
X-13.846 Y274.201
X-13.841
X-10.598 Y274.403
X-10.593
X-7.339 Y274.574
X-7.336
X-4.076 Y274.724
X-4.075 Y274.725
X-0.811 Y274.865
G2 X-0.765 Y274.864 I0.021 J-0.5
G1 X2.566 Y274.702
X2.567
X5.896 Y274.53
X5.899
X9.222 Y274.34
X9.226
X12.543 Y274.124
X12.547
X14.202 Y274.002
X14.205 Y274.001
X15.857 Y273.87
X15.86
X17.509 Y273.727
X17.513
X19.159 Y273.572
X19.163 Y273.571
X20.805 Y273.403
X20.809
X22.447 Y273.22
X22.452 Y273.219
X24.086 Y273.02
X24.092
X25.721 Y272.804
X25.726 Y272.803
X27.351 Y272.569
X27.356 Y272.568
X28.976 Y272.316
X28.983 Y272.315
X30.597 Y272.041
X30.603 Y272.04
X32.211 Y271.746
X32.218 Y271.744
X33.82 Y271.427
X33.828 Y271.426
X35.423 Y271.085
X35.431 Y271.083
X37.02 Y270.718
X37.028 Y270.716
X38.61 Y270.325
X38.618 Y270.323
X40.193 Y269.905
X40.202 Y269.903
X41.769 Y269.457
X41.777 Y269.454
X43.337 Y268.982
X43.345 Y268.979
X44.898 Y268.48
X44.906 Y268.478
X46.452 Y267.955
X46.459 Y267.952
X48. Y267.405
X48.006 Y267.403
X49.54 Y266.835
X49.547 Y266.832
X51.075 Y266.242
X51.081 Y266.24
X52.604 Y265.631
X52.61 Y265.629
X54.128 Y265.001
X54.133 Y264.999
X55.647 Y264.355
X55.652 Y264.353
X57.161 Y263.692
X57.165 Y263.69
X58.671 Y263.014
X58.674 Y263.013
X60.176 Y262.325
X60.18 Y262.323
X61.679 Y261.621
X61.682 Y261.619
X63.177 Y260.907
X63.181 Y260.906
X66.165 Y259.453
X66.169 Y259.451
X69.145 Y257.969
X69.148 Y257.967
X72.118 Y256.465
X72.119
X75.087 Y254.953
G2 X75.156 Y254.91 I-0.227 J-0.446
G1 X77.157 Y253.445
X77.158
X79.155 Y251.974
X79.157 Y251.972
X81.144 Y250.492
X81.147 Y250.49
X83.119 Y248.997
X83.123 Y248.993
X85.076 Y247.482
X85.081 Y247.478
X87.009 Y245.943
X87.013 Y245.94
X87.966 Y245.163
X87.97 Y245.16
X88.915 Y244.375
X88.918 Y244.372
X89.855 Y243.58
X89.859 Y243.576
X90.786 Y242.775
X90.79 Y242.772
X91.708 Y241.961
X91.712 Y241.957
X92.619 Y241.137
X92.623 Y241.133
X93.519 Y240.303
X93.524 Y240.298
X94.408 Y239.457
X94.413 Y239.452
X95.285 Y238.599
X95.29 Y238.595
X96.149 Y237.731
X96.154 Y237.725
X97. Y236.848
X97.005 Y236.842
X97.837 Y235.951
X97.842 Y235.945
X98.659 Y235.042
X98.664 Y235.037
X99.467 Y234.121
X99.472 Y234.115
X100.263 Y233.187
X100.267 Y233.182
X101.045 Y232.242
X101.049 Y232.237
X101.815 Y231.287
X101.819 Y231.282
X102.574 Y230.32
X102.578 Y230.315
X103.322 Y229.344
X103.325 Y229.34
X104.059 Y228.36
X104.062 Y228.355
X104.786 Y227.366
X104.789 Y227.362
X105.505 Y226.364
X105.508 Y226.361
X106.215 Y225.356
X106.217 Y225.352
X106.917 Y224.34
X106.92 Y224.336
X108.299 Y222.292
X108.303 Y222.286
X109.657 Y220.22
X109.66 Y220.216
X110.996 Y218.133
X110.998 Y218.13
X112.32 Y216.033
X112.321 Y216.03
X113.633 Y213.925
X113.634 Y213.924
X114.941 Y211.814
G2 X114.972 Y211.756 I-0.425 J-0.263
G1 X116.191 Y209.043
X116.192 Y209.042
X117.404 Y206.328
Y206.326
X118.603 Y203.608
X118.605 Y203.605
X119.784 Y200.881
X119.786 Y200.876
X120.938 Y198.145
X120.94 Y198.14
X122.059 Y195.4
X122.061 Y195.396
X122.607 Y194.022
X122.608 Y194.018
X123.142 Y192.641
X123.144 Y192.637
X123.667 Y191.256
X123.668 Y191.252
X124.178 Y189.868
X124.18 Y189.864
X124.678 Y188.477
X124.679 Y188.472
X125.162 Y187.081
X125.164 Y187.076
X125.632 Y185.68
X125.634 Y185.675
X126.086 Y184.275
X126.088 Y184.269
X126.524 Y182.865
X126.525 Y182.86
X126.944 Y181.451
X126.946 Y181.444
X127.346 Y180.029
X127.348 Y180.023
X127.731 Y178.604
X127.732 Y178.598
X128.097 Y177.174
X128.099 Y177.169
X128.448 Y175.74
X128.449 Y175.734
X128.781 Y174.301
X128.782 Y174.296
X129.1 Y172.859
X129.101 Y172.854
X129.404 Y171.413
X129.405 Y171.408
X129.694 Y169.963
X129.695 Y169.959
X129.971 Y168.51
X129.972 Y168.506
X130.237 Y167.054
X130.238 Y167.049
X130.49 Y165.594
Y165.591
X130.732 Y164.132
X130.733 Y164.127
X131.187 Y161.203
X131.188 Y161.197
X131.607 Y158.262
X131.608 Y158.257
X131.999 Y155.315
Y155.311
X132.366 Y152.362
X132.367 Y152.359
X132.717 Y149.405
Y149.403
X133.055 Y146.447
X133.388 Y143.487
G2 X132.975 Y142.938 I-0.497 J-0.056
G1 X45.702 Y128.061
G2 X45.32 Y128.153 I-0.084 J0.493
X45.122 Y128.493 I0.299 J0.401
G1 X44.834 Y130.855
X44.54 Y133.212
X44.234 Y135.564
X43.911 Y137.908
X43.563 Y140.241
X43.185 Y142.564
X42.984 Y143.719
X42.772 Y144.869
X42.55 Y146.016
X42.317 Y147.159
X42.071 Y148.298
X41.813 Y149.431
X41.542 Y150.558
X41.257 Y151.68
X40.956 Y152.797
X40.64 Y153.906
X40.308 Y155.01
X39.958 Y156.107
X39.59 Y157.197
X39.204 Y158.281
X38.799 Y159.356
X38.373 Y160.424
X37.928 Y161.486
X37.465 Y162.541
X36.984 Y163.59
X36.487 Y164.635
X35.974 Y165.674
X35.446 Y166.708
X34.905 Y167.737
X34.351 Y168.762
X33.785 Y169.784
X33.209 Y170.801
X32.027 Y172.828
X30.813 Y174.846
X29.575 Y176.855
X28.321 Y178.861
X27.097 Y180.806
X26.216 Y181.588
X25.282 Y182.41
X24.345 Y183.219
X23.402 Y184.01
X22.452 Y184.777
X21.493 Y185.514
X20.519 Y186.217
X20.03 Y186.552
X19.535 Y186.876
X19.036 Y187.19
X18.533 Y187.491
X18.025 Y187.779
X17.512 Y188.054
X16.994 Y188.314
X16.47 Y188.56
X15.94 Y188.791
X15.404 Y189.007
X14.861 Y189.208
X14.312 Y189.395
X13.756 Y189.57
X13.194 Y189.732
X12.627 Y189.882
X12.054 Y190.021
X11.476 Y190.149
X10.895 Y190.266
X9.712 Y190.473
X8.515 Y190.647
X7.304 Y190.792
X6.08 Y190.913
X4.845 Y191.013
X3.602 Y191.1
X2.353 Y191.177
X1.146 Y191.246
X-0.256 Y191.065
X-1.698 Y190.873
X-3.128 Y190.666
X-4.544 Y190.438
X-5.943 Y190.184
X-6.631 Y190.045
X-7.315 Y189.895
X-7.991 Y189.736
X-8.661 Y189.566
X-9.322 Y189.383
X-9.976 Y189.189
X-10.62 Y188.98
X-11.255 Y188.758
X-11.88 Y188.52
X-12.494 Y188.267
X-13.098 Y187.996
X-13.69 Y187.708
X-14.271 Y187.401
X-14.84 Y187.075
X-15.398 Y186.729
X-15.945 Y186.365
X-16.483 Y185.98
X-17.011 Y185.579
X-17.529 Y185.16
X-18.04 Y184.726
X-18.542 Y184.275
X-19.037 Y183.81
X-19.525 Y183.33
X-20.006 Y182.837
X-20.48 Y182.332
X-20.949 Y181.817
X-21.413 Y181.289
X-21.871 Y180.755
X-22.776 Y179.654
X-23.667 Y178.526
X-24.547 Y177.375
X-25.421 Y176.209
X-26.262 Y175.076
X-26.889 Y173.719
X-27.533 Y172.315
X-28.167 Y170.911
X-28.787 Y169.504
X-29.389 Y168.095
X-29.968 Y166.682
X-30.52 Y165.263
X-31.041 Y163.839
X-31.526 Y162.405
X-31.753 Y161.688
X-31.97 Y160.967
X-32.176 Y160.244
X-32.37 Y159.519
X-32.552 Y158.79
X-32.723 Y158.058
X-32.882 Y157.324
X-33.03 Y156.586
X-33.167 Y155.845
X-33.295 Y155.103
X-33.522 Y153.607
X-33.715 Y152.102
X-33.878 Y150.589
X-34.013 Y149.068
X-34.126 Y147.54
X-34.22 Y146.006
X-34.298 Y144.466
X-34.365 Y142.924
X-34.425 Y141.377
X-34.479 Y139.858
X-34.25 Y136.922
X-34.01 Y133.96
X-33.755 Y131.005
X-33.475 Y128.058
X-33.164 Y125.12
X-32.994 Y123.657
X-32.813 Y122.197
X-32.621 Y120.74
X-32.415 Y119.287
X-32.195 Y117.839
X-31.961 Y116.394
X-31.71 Y114.955
X-31.443 Y113.521
X-31.158 Y112.092
X-30.854 Y110.669
X-30.53 Y109.251
X-30.186 Y107.84
X-29.819 Y106.435
X-29.43 Y105.037
X-29.019 Y103.644
X-28.586 Y102.258
X-28.132 Y100.876
X-27.659 Y99.5
X-27.167 Y98.129
X-26.657 Y96.762
X-26.13 Y95.399
X-25.588 Y94.041
X-25.03 Y92.686
X-24.458 Y91.335
X-23.873 Y89.988
X-23.275 Y88.643
X-22.666 Y87.301
X-22.047 Y85.963
X-20.781 Y83.29
X-19.484 Y80.625
X-18.165 Y77.965
X-16.83 Y75.309
X-15.54 Y72.759
X-13.735 Y71.429
X-11.834 Y70.028
X-9.934 Y68.625
X-8.035 Y67.22
X-6.138 Y65.812
X-4.243 Y64.401
X-2.352 Y62.987
X-2.351 Y62.986
X-0.463 Y61.567
X-0.462 Y61.566
X1.421 Y60.143
X1.423 Y60.142
X3.302 Y58.712
X3.303 Y58.711
X5.177 Y57.275
X5.179 Y57.274
X7.047 Y55.831
X7.049 Y55.83
X8.912 Y54.38
X8.913 Y54.379
X10.771 Y52.922
X10.772 Y52.921
X12.625 Y51.458
X12.626 Y51.457
X14.475 Y49.988
X14.476 Y49.987
X16.321 Y48.513
X16.322
X18.163 Y47.034
X20.003 Y45.552
X21.839 Y44.067
X23.674 Y42.579
X25.507 Y41.089
X27.339 Y39.599
X29.171 Y38.107
X30.634 Y36.914
X32.097 Y35.719
X33.558 Y34.522
X33.559 Y34.521
X35.016 Y33.322
X35.017 Y33.321
X36.47 Y32.116
X36.471 Y32.115
X37.919 Y30.906
X37.921 Y30.904
X39.363 Y29.688
X39.365 Y29.687
X40.799 Y28.463
X40.801 Y28.461
X42.228 Y27.229
X42.23 Y27.226
X43.647 Y25.985
X43.65 Y25.982
X45.056 Y24.729
X45.06 Y24.727
X46.455 Y23.462
X46.458 Y23.459
X47.841 Y22.182
X47.844 Y22.178
X49.214 Y20.887
X49.218 Y20.883
X50.572 Y19.576
X50.576 Y19.572
X51.916 Y18.25
X51.92 Y18.246
X53.244 Y16.907
X53.247 Y16.904
X54.558 Y15.551
X54.561 Y15.548
X55.86 Y14.184
X55.862 Y14.181
X57.152 Y12.807
X57.154 Y12.805
X58.436 Y11.422
X58.437 Y11.421
X59.713 Y10.032
X59.714 Y10.031
X60.986 Y8.639
X62.247 Y7.255
X64.599 Y4.956
X66.957 Y2.644
X66.958 Y2.643
X69.309 Y0.326
X69.31 Y0.324
X71.65 Y-2.002
X71.652 Y-2.004
X73.977 Y-4.343
X73.98 Y-4.345
X76.287 Y-6.698
X76.29 Y-6.701
X78.575 Y-9.072
X78.578 Y-9.076
X80.838 Y-11.468
X80.842 Y-11.472
X83.073 Y-13.887
X83.076 Y-13.891
X84.179 Y-15.108
X84.181 Y-15.111
X85.276 Y-16.335
X85.278 Y-16.338
X86.364 Y-17.57
X86.366 Y-17.573
X87.442 Y-18.813
X87.445 Y-18.816
X88.511 Y-20.064
X88.513 Y-20.067
X89.569 Y-21.323
X89.571 Y-21.326
X90.616 Y-22.592
X90.619 Y-22.595
X91.652 Y-23.87
X91.655 Y-23.873
X92.676 Y-25.157
X92.679 Y-25.161
X93.689 Y-26.454
X93.692 Y-26.457
X94.692 Y-27.759
X94.694 Y-27.762
X95.683 Y-29.072
X95.686 Y-29.075
X96.665 Y-30.393
X96.668 Y-30.396
X97.638 Y-31.722
X97.64 Y-31.724
X98.602 Y-33.057
X98.604 Y-33.059
X99.558 Y-34.398
X99.561 Y-34.402
X101.448 Y-37.097
X101.451 Y-37.101
X103.311 Y-39.818
X103.313 Y-39.821
X105.153 Y-42.555
X105.155 Y-42.558
X106.977 Y-45.306
X106.978 Y-45.308
X108.787 Y-48.066
X108.788 Y-48.067
X110.589 Y-50.833
X112.386 Y-53.602
G2 X112.405 Y-53.633 I-0.419 J-0.272
G1 X112.975 Y-54.668
X113.545 Y-55.704
X114.114 Y-56.74
X114.682 Y-57.778
X114.683 Y-57.78
X115.246 Y-58.819
Y-58.82
X115.807 Y-59.86
X115.808 Y-59.862
X116.364 Y-60.904
X116.365 Y-60.906
X116.916 Y-61.951
X116.917 Y-61.953
X117.463 Y-63.
X117.465 Y-63.003
X118.005 Y-64.053
X118.006 Y-64.056
X118.538 Y-65.11
X118.54 Y-65.113
X119.065 Y-66.17
X119.067 Y-66.174
X119.584 Y-67.235
X119.585 Y-67.239
X120.093 Y-68.305
X120.095 Y-68.308
X120.596 Y-69.377
X120.597 Y-69.38
X121.091 Y-70.453
X121.092 Y-70.456
X121.579 Y-71.532
X121.58 Y-71.534
X122.062 Y-72.612
X122.063 Y-72.614
X122.54 Y-73.695
X122.541 Y-73.696
X123.015 Y-74.779
X123.016 Y-74.781
X123.486 Y-75.865
X123.954 Y-76.951
X124.42 Y-78.038
X124.887 Y-79.124
G2 X124.895 Y-79.146 I-0.46 J-0.197
G1 X125.686 Y-81.261
X126.474 Y-83.378
Y-83.38
X127.254 Y-85.497
X127.255 Y-85.5
X128.023 Y-87.62
X128.024 Y-87.624
X128.777 Y-89.747
X128.779 Y-89.751
X129.513 Y-91.879
X129.514 Y-91.884
X130.226 Y-94.017
X130.228 Y-94.023
X130.913 Y-96.162
X130.915 Y-96.169
X131.57 Y-98.315
X131.572 Y-98.322
X132.193 Y-100.475
X132.195 Y-100.482
X132.491 Y-101.562
X132.492 Y-101.566
X132.779 Y-102.648
X132.781 Y-102.653
X133.057 Y-103.738
X133.058 Y-103.742
X133.324 Y-104.829
X133.325 Y-104.834
X133.579 Y-105.923
X133.58 Y-105.929
X133.822 Y-107.022
X133.823 Y-107.027
X134.053 Y-108.122
X134.054 Y-108.127
X134.273 Y-109.224
X134.274 Y-109.229
X134.482 Y-110.329
X134.483 Y-110.334
X134.681 Y-111.436
X134.682 Y-111.442
X135.049 Y-113.654
X135.05 Y-113.662
X135.382 Y-115.881
X135.383 Y-115.888
X135.684 Y-118.114
X135.685 Y-118.12
X135.961 Y-120.351
X135.962 Y-120.356
X136.216 Y-122.593
Y-122.597
X136.452 Y-124.838
X136.453 Y-124.84
X136.677 Y-127.083
Y-127.086
X136.891 Y-129.332
X137.102 Y-131.578
G2 X137.103 Y-131.652 I-0.498 J-0.047
G1 X136.856 Y-136.144
Y-136.146
X136.594 Y-140.632
Y-140.635
X136.303 Y-145.113
Y-145.117
X136.142 Y-147.35
X136.141 Y-147.353
X135.969 Y-149.583
X135.968 Y-149.586
X135.779 Y-151.811
Y-151.815
X135.574 Y-154.034
X135.573 Y-154.038
X135.35 Y-156.252
Y-156.257
X135.107 Y-158.465
X135.106 Y-158.47
X134.84 Y-160.67
Y-160.675
X134.551 Y-162.868
X134.55 Y-162.874
X134.235 Y-165.058
X134.234 Y-165.065
X133.891 Y-167.241
X133.89 Y-167.247
X133.519 Y-169.413
X133.518 Y-169.421
X133.115 Y-171.578
X133.113 Y-171.586
X132.677 Y-173.732
X132.675 Y-173.74
X132.204 Y-175.874
X132.202 Y-175.882
X131.695 Y-178.006
X131.694 Y-178.013
X131.426 Y-179.07
X131.424 Y-179.075
X131.146 Y-180.128
X131.145 Y-180.132
X130.857 Y-181.183
X130.856 Y-181.188
X130.558 Y-182.235
X130.556 Y-182.24
X130.247 Y-183.284
X130.246 Y-183.289
X129.926 Y-184.33
X129.924 Y-184.335
X129.594 Y-185.372
X129.593 Y-185.377
X129.251 Y-186.41
X129.249 Y-186.415
X128.897 Y-187.445
X128.895 Y-187.45
X128.531 Y-188.477
X128.53 Y-188.481
X128.157 Y-189.504
X128.155 Y-189.509
X127.771 Y-190.529
X127.769 Y-190.534
X127.375 Y-191.551
X127.374 Y-191.555
X126.971 Y-192.569
X126.968 Y-192.575
X126.132 Y-194.593
X126.129 Y-194.601
X125.258 Y-196.608
X125.254 Y-196.615
X124.349 Y-198.611
X124.346 Y-198.619
X123.408 Y-200.605
X123.405 Y-200.611
X122.437 Y-202.587
X122.434 Y-202.593
X121.438 Y-204.56
X121.435 Y-204.566
X120.412 Y-206.524
X120.409 Y-206.529
X119.361 Y-208.48
X119.359 Y-208.484
X118.289 Y-210.427
X118.287 Y-210.431
X117.196 Y-212.368
X117.193 Y-212.372
X116.083 Y-214.303
X116.081 Y-214.307
X114.954 Y-216.232
X114.953 Y-216.235
X113.81 Y-218.156
X113.808 Y-218.158
X112.653 Y-220.074
X112.651 Y-220.077
X110.307 Y-223.899
X110.305 Y-223.902
X107.932 Y-227.714
Y-227.716
X105.543 Y-231.524
G2 X105.482 Y-231.602 I-0.424 J0.266
G1 X103.406 Y-233.797
X103.405 Y-233.798
X101.323 Y-235.985
X101.321 Y-235.987
X99.227 Y-238.154
X99.223 Y-238.158
X97.111 Y-240.296
X97.107 Y-240.3
X96.042 Y-241.355
X96.039 Y-241.358
X94.967 Y-242.403
X94.963 Y-242.406
X93.884 Y-243.438
X93.88 Y-243.442
X92.792 Y-244.461
X92.788 Y-244.465
X91.691 Y-245.47
X91.686 Y-245.474
X90.579 Y-246.464
X90.574 Y-246.468
X89.456 Y-247.44
X89.451 Y-247.445
X88.321 Y-248.4
X88.315 Y-248.405
X87.174 Y-249.34
X87.167 Y-249.345
X86.013 Y-250.26
X86.006 Y-250.265
X84.837 Y-251.158
X84.83 Y-251.164
X83.646 Y-252.034
X83.639 Y-252.039
X82.44 Y-252.886
G2 X82.432 Y-252.892 I-0.289 J0.408
G1 X81.217 Y-253.713
G2 X81.208 Y-253.719 I-0.28 J0.414
G1 X79.977 Y-254.514
G2 X79.968 Y-254.519 I-0.271 J0.42
G1 X78.721 Y-255.289
G2 X78.712 Y-255.295 I-0.263 J0.425
G1 X77.449 Y-256.04
X77.441 Y-256.044
X76.162 Y-256.766
X76.154 Y-256.771
X74.862 Y-257.47
X74.854 Y-257.474
X73.548 Y-258.152
X73.54 Y-258.156
X72.221 Y-258.813
X72.214 Y-258.816
X70.882 Y-259.454
X70.875 Y-259.457
X69.532 Y-260.076
X69.526 Y-260.079
X68.171 Y-260.682
X68.165 Y-260.685
X66.8 Y-261.27
X66.794 Y-261.272
X65.419 Y-261.843
X65.414 Y-261.845
X64.03 Y-262.401
X64.025 Y-262.403
X62.633 Y-262.946
X62.628 Y-262.948
X61.228 Y-263.479
X61.224 Y-263.48
X59.816 Y-263.999
X59.813 Y-264.
X58.399 Y-264.51
X58.395 Y-264.512
X56.975 Y-265.012
X56.971 Y-265.013
X54.116 Y-265.989
X54.112 Y-265.991
X51.241 Y-266.943
X51.238 Y-266.944
X48.357 Y-267.88
X48.356
X45.469 Y-268.808
G2 X45.456 Y-268.812 I-0.153 J0.476
G1 X43.758 Y-269.304
X43.757 Y-269.305
X42.059 Y-269.793
X42.058
X40.359 Y-270.275
X40.355 Y-270.276
X38.655 Y-270.746
X38.651 Y-270.747
X36.948 Y-271.203
X36.943 Y-271.204
X35.237 Y-271.641
X35.231 Y-271.643
X33.522 Y-272.059
X33.515 Y-272.061
X31.802 Y-272.451
X31.794 Y-272.452
X30.077 Y-272.814
X30.067 Y-272.816
X28.345 Y-273.144
G2 X28.335 Y-273.146 I-0.094 J0.491
G1 X26.606 Y-273.439
G2 X26.595 Y-273.441 I-0.084 J0.493
G1 X24.861 Y-273.695
X24.852 Y-273.696
X23.112 Y-273.916
X23.103 Y-273.917
X21.359 Y-274.105
X21.35 Y-274.106
X19.601 Y-274.265
X19.594 Y-274.266
X17.841 Y-274.398
X17.834
X16.078 Y-274.508
X16.071
X14.312 Y-274.596
X14.307 Y-274.597
X12.545 Y-274.669
X12.541
X10.776 Y-274.726
X10.772
X9.006 Y-274.771
X9.003
X7.235 Y-274.807
X7.234
X5.465 Y-274.838
X5.464
X3.695 Y-274.865
G2 X3.662 Y-274.864 I-0.008 J0.5
G1 X0.053 Y-274.679
X0.051
X-3.554 Y-274.482
X-3.557
X-7.155 Y-274.264
X-7.16
X-10.748 Y-274.013
X-10.753 Y-274.012
X-12.542 Y-273.87
X-12.546
X-14.331 Y-273.716
X-14.335
X-16.116 Y-273.548
X-16.12 Y-273.547
X-17.897 Y-273.365
X-17.902
X-19.674 Y-273.165
X-19.678 Y-273.164
X-21.444 Y-272.947
X-21.45
X-23.21 Y-272.711
X-23.216 Y-272.71
X-24.97 Y-272.453
X-24.976 Y-272.452
X-26.723 Y-272.172
X-26.729 Y-272.171
X-28.469 Y-271.869
X-28.476 Y-271.867
X-30.208 Y-271.54
X-30.216 Y-271.539
X-31.94 Y-271.185
X-31.948 Y-271.183
X-33.663 Y-270.802
X-33.672 Y-270.8
X-35.378 Y-270.39
X-35.387 Y-270.388
X-37.084 Y-269.948
X-37.093 Y-269.946
X-38.78 Y-269.475
G2 X-38.79 Y-269.472 I0.134 J0.482
G1 X-40.467 Y-268.967
G2 X-40.477 Y-268.964 I0.144 J0.479
G1 X-42.144 Y-268.425
G2 X-42.153 Y-268.422 I0.154 J0.476
G1 X-43.809 Y-267.849
X-43.818 Y-267.845
X-45.465 Y-267.24
X-45.473 Y-267.237
X-47.11 Y-266.602
X-47.118 Y-266.599
X-48.746 Y-265.935
X-48.754 Y-265.932
X-50.373 Y-265.24
X-50.38 Y-265.237
X-51.992 Y-264.519
X-51.998 Y-264.516
X-53.602 Y-263.774
X-53.608 Y-263.771
X-55.205 Y-263.005
X-55.211 Y-263.002
X-56.801 Y-262.215
X-56.806 Y-262.213
X-58.39 Y-261.407
X-58.395 Y-261.404
X-59.973 Y-260.579
X-59.978 Y-260.577
X-61.551 Y-259.735
X-61.555 Y-259.733
X-63.123 Y-258.876
X-63.127 Y-258.874
X-64.691 Y-258.003
X-64.694 Y-258.001
X-66.254 Y-257.118
X-66.257 Y-257.117
X-67.814 Y-256.223
X-67.817 Y-256.221
X-70.924 Y-254.407
X-70.927 Y-254.405
X-74.025 Y-252.567
X-74.027 Y-252.566
X-77.122 Y-250.716
G2 X-77.194 Y-250.664 I0.257 J0.429
G1 X-79.361 Y-248.777
X-79.362 Y-248.776
X-81.523 Y-246.885
X-81.525 Y-246.884
X-83.674 Y-244.984
X-83.677 Y-244.981
X-85.809 Y-243.066
X-85.813 Y-243.062
X-87.92 Y-241.128
X-87.924 Y-241.125
X-88.967 Y-240.15
X-88.969 Y-240.148
X-90.004 Y-239.166
X-90.007 Y-239.163
X-91.033 Y-238.174
X-91.036 Y-238.171
X-92.052 Y-237.174
X-92.055 Y-237.171
X-93.061 Y-236.166
X-93.065 Y-236.162
X-94.059 Y-235.148
X-94.063 Y-235.144
X-95.045 Y-234.121
X-95.049 Y-234.117
X-96.019 Y-233.084
X-96.023 Y-233.08
X-96.979 Y-232.036
X-96.984 Y-232.031
X-97.926 Y-230.975
X-97.93 Y-230.97
X-98.857 Y-229.903
X-98.862 Y-229.898
X-99.774 Y-228.819
X-99.778 Y-228.813
X-100.674 Y-227.72
X-100.679 Y-227.714
X-101.557 Y-226.608
X-101.561 Y-226.602
X-102.422 Y-225.482
X-102.427 Y-225.476
X-103.272 Y-224.344
X-103.276 Y-224.338
X-104.105 Y-223.193
X-104.109 Y-223.188
X-104.924 Y-222.032
X-104.928 Y-222.027
X-105.728 Y-220.859
X-105.731 Y-220.854
X-106.518 Y-219.676
X-106.521 Y-219.671
X-107.296 Y-218.483
X-107.299 Y-218.478
X-108.061 Y-217.28
X-108.064 Y-217.276
X-108.815 Y-216.069
X-108.817 Y-216.065
X-109.557 Y-214.85
X-109.559 Y-214.847
X-110.29 Y-213.624
X-110.292 Y-213.62
X-111.013 Y-212.39
X-111.016 Y-212.385
X-112.434 Y-209.905
X-112.437 Y-209.9
X-113.827 Y-207.397
X-113.829 Y-207.393
X-115.197 Y-204.873
X-115.199 Y-204.869
X-116.549 Y-202.335
X-116.55 Y-202.333
X-117.889 Y-199.79
X-117.89 Y-199.789
X-119.224 Y-197.242
G2 X-119.249 Y-197.185 I0.443 J0.232
G1 X-120.497 Y-193.853
X-121.739 Y-190.519
Y-190.517
X-122.965 Y-187.181
X-122.966 Y-187.178
X-124.169 Y-183.836
X-124.171 Y-183.832
X-125.345 Y-180.484
X-125.346 Y-180.481
X-125.92 Y-178.804
X-125.921 Y-178.801
X-126.484 Y-177.122
X-126.485 Y-177.119
X-127.037 Y-175.437
X-127.038 Y-175.434
X-127.579 Y-173.749
X-127.58 Y-173.745
X-128.107 Y-172.058
X-128.108 Y-172.054
X-128.621 Y-170.363
X-128.623 Y-170.359
X-129.121 Y-168.665
X-129.122 Y-168.661
X-129.605 Y-166.964
X-129.606 Y-166.959
X-130.072 Y-165.258
X-130.074 Y-165.253
X-130.522 Y-163.548
X-130.523 Y-163.543
X-130.953 Y-161.834
X-130.954 Y-161.828
X-131.364 Y-160.114
X-131.366 Y-160.109
X-131.756 Y-158.391
X-131.757 Y-158.385
X-132.128 Y-156.663
X-132.129 Y-156.657
X-132.479 Y-154.93
X-132.48 Y-154.925
X-132.813 Y-153.194
X-132.814 Y-153.189
X-133.129 Y-151.454
X-133.13 Y-151.449
X-133.428 Y-149.712
X-133.429 Y-149.707
X-133.711 Y-147.965
Y-147.961
X-133.978 Y-146.215
X-133.979 Y-146.211
X-134.232 Y-144.463
Y-144.459
X-134.471 Y-142.707
X-134.472 Y-142.703
X-134.698 Y-140.948
Y-140.944
X-134.912 Y-139.187
X-134.913 Y-139.184
X-135.116 Y-137.424
Y-137.421
X-135.309 Y-135.659
Y-135.655
X-135.666 Y-132.125
X-135.667 Y-132.121
X-135.992 Y-128.583
Y-128.579
X-136.292 Y-125.036
Y-125.033
X-136.572 Y-121.486
X-136.573 Y-121.485
X-136.841 Y-117.935
X-137.103 Y-114.382
G2 X-136.981 Y-114.017 I0.499 J0.037
X-136.637 Y-113.846 I0.377 J-0.328
G1 X-98.486 Y-111.344
G3 X-98.417 Y-111.31 I-0.007 J0.1
X-98.392 Y-111.237 I-0.075 J0.066
G1 X-98.399 Y-111.138
X-98.401 Y-111.099 Z-0.992
X-98.404 Y-111.067 Z-0.971
X-98.405 Y-111.045 Z-0.938
Y-111.038 Z-0.9
G0 Z15.
M5
G53 Z0.
M30
