(Letter_U)
(T1  D=1. CR=0.5 - ZMIN=-1. - ball end mill)
G90
G0 G53 Z0.

(2D Contour21)
T1 M6 (ball end mill D=1. drag knife)
S47747 M3
G64
G54
G43 H1
G0 X-131.904 Y-41.981
Z15.
Z5.
G1 Z1. F9549.3
Z-0.9
X-131.896 Z-0.938
X-131.875 Z-0.971
X-131.842 Z-0.992
X-131.804 Z-1.
X-131.704
G3 X-131.604 Y-41.881 I0. J0.1
G1 Y271.143
G2 X-131.104 Y271.643 I0.5 J0.
G1 X-41.748
G2 X-41.248 Y271.143 I0. J-0.5
G1 Y-139.902
X-41.132 Y-141.188
X-41.009 Y-142.493
X-40.876 Y-143.792
X-40.728 Y-145.082
X-40.561 Y-146.362
X-40.369 Y-147.63
X-40.147 Y-148.885
X-40.024 Y-149.504
X-39.891 Y-150.119
X-39.749 Y-150.73
X-39.596 Y-151.336
X-39.433 Y-151.938
X-39.258 Y-152.533
X-39.07 Y-153.123
X-38.87 Y-153.707
X-38.657 Y-154.285
X-38.429 Y-154.856
X-38.187 Y-155.421
X-37.931 Y-155.981
X-37.66 Y-156.536
X-37.377 Y-157.086
X-37.08 Y-157.631
X-36.772 Y-158.172
X-36.452 Y-158.708
X-36.121 Y-159.241
X-35.779 Y-159.77
X-35.429 Y-160.295
X-34.699 Y-161.338
X-33.939 Y-162.37
X-33.153 Y-163.393
X-32.345 Y-164.409
X-31.52 Y-165.421
X-30.684 Y-166.43
X-29.872 Y-167.403
X-28.9 Y-168.202
X-27.891 Y-169.025
X-26.879 Y-169.837
X-25.862 Y-170.633
X-24.84 Y-171.408
X-23.809 Y-172.157
X-22.767 Y-172.875
X-21.712 Y-173.56
X-21.182 Y-173.886
X-20.647 Y-174.202
X-20.107 Y-174.506
X-19.563 Y-174.799
X-19.015 Y-175.079
X-18.462 Y-175.347
X-17.904 Y-175.601
X-17.341 Y-175.84
X-16.771 Y-176.066
X-16.196 Y-176.278
X-15.615 Y-176.476
X-15.028 Y-176.662
X-14.435 Y-176.836
X-13.837 Y-176.998
X-13.234 Y-177.15
X-12.628 Y-177.292
X-11.397 Y-177.547
X-10.151 Y-177.768
X-8.891 Y-177.959
X-7.619 Y-178.127
X-6.336 Y-178.275
X-5.046 Y-178.409
X-3.75 Y-178.533
X-2.494 Y-178.648
X-1.229 Y-178.535
X0.077 Y-178.412
X1.377 Y-178.28
X2.668 Y-178.133
X3.95 Y-177.966
X5.219 Y-177.775
X6.475 Y-177.554
X7.094 Y-177.43
X7.711 Y-177.298
X8.323 Y-177.156
X8.93 Y-177.004
X9.531 Y-176.841
X10.128 Y-176.666
X10.718 Y-176.479
X11.303 Y-176.279
X11.882 Y-176.066
X12.454 Y-175.839
X13.02 Y-175.597
X13.581 Y-175.341
X14.136 Y-175.071
X14.686 Y-174.787
X15.233 Y-174.491
X15.774 Y-174.183
X16.312 Y-173.863
X16.845 Y-173.532
X17.375 Y-173.191
X17.9 Y-172.841
X18.946 Y-172.111
X19.979 Y-171.352
X21.004 Y-170.566
X22.022 Y-169.757
X23.035 Y-168.933
X24.046 Y-168.098
X25.02 Y-167.286
X25.819 Y-166.314
X26.643 Y-165.305
X27.455 Y-164.295
X28.251 Y-163.28
X29.026 Y-162.258
X29.775 Y-161.227
X30.493 Y-160.187
X31.177 Y-159.132
X31.503 Y-158.602
X31.819 Y-158.067
X32.124 Y-157.527
X32.417 Y-156.984
X32.697 Y-156.436
X32.965 Y-155.883
X33.218 Y-155.326
X33.458 Y-154.763
X33.684 Y-154.194
X33.895 Y-153.62
X34.094 Y-153.039
X34.28 Y-152.452
X34.454 Y-151.859
X34.616 Y-151.261
X34.768 Y-150.659
X34.909 Y-150.054
X35.164 Y-148.823
X35.385 Y-147.578
X35.577 Y-146.318
X35.744 Y-145.047
X35.893 Y-143.764
X36.026 Y-142.474
X36.15 Y-141.178
X36.268 Y-139.902
Y271.143
G2 X36.768 Y271.643 I0.5 J0.
G1 X131.104
G2 X131.604 Y271.143 I0. J-0.5
G1 Y-140.9
G2 X131.602 Y-140.945 I-0.5 J0.
G1 X131.207 Y-145.309
Y-145.311
X130.796 Y-149.668
Y-149.671
X130.579 Y-151.845
X130.578 Y-151.847
X130.35 Y-154.016
Y-154.019
X130.11 Y-156.183
Y-156.187
X129.855 Y-158.345
X129.854 Y-158.349
X129.582 Y-160.5
X129.581 Y-160.504
X129.29 Y-162.647
Y-162.652
X128.979 Y-164.786
X128.978 Y-164.792
X128.643 Y-166.916
X128.642 Y-166.922
X128.281 Y-169.036
X128.28 Y-169.042
X127.893 Y-171.145
X127.891 Y-171.153
X127.474 Y-173.243
X127.473 Y-173.251
X127.024 Y-175.328
X127.022 Y-175.336
X126.54 Y-177.399
X126.538 Y-177.408
X126.02 Y-179.456
X126.018 Y-179.463
X125.745 Y-180.481
X125.744 Y-180.485
X125.462 Y-181.499
X125.46 Y-181.504
X125.167 Y-182.514
X125.166 Y-182.519
X124.863 Y-183.525
X124.861 Y-183.531
X124.547 Y-184.532
X124.546 Y-184.537
X124.222 Y-185.534
X124.22 Y-185.539
X123.885 Y-186.531
X123.883 Y-186.537
X123.536 Y-187.524
X123.534 Y-187.529
X123.176 Y-188.512
X123.174 Y-188.518
X122.804 Y-189.495
X122.801 Y-189.501
X122.419 Y-190.474
X122.417 Y-190.48
X122.022 Y-191.447
X122.019 Y-191.453
X121.612 Y-192.415
X121.61 Y-192.421
X121.19 Y-193.378
X121.187 Y-193.383
X120.756 Y-194.335
X120.754 Y-194.341
X120.31 Y-195.288
X120.307 Y-195.294
X119.851 Y-196.236
X119.849 Y-196.241
X119.383 Y-197.178
X119.38 Y-197.183
X118.902 Y-198.115
X118.899 Y-198.12
X118.41 Y-199.048
X118.408 Y-199.053
X117.908 Y-199.977
X117.905 Y-199.982
X117.395 Y-200.901
X117.393 Y-200.905
X116.873 Y-201.82
X116.87 Y-201.825
X116.34 Y-202.735
X116.337 Y-202.741
X115.249 Y-204.551
X115.244 Y-204.558
X114.12 Y-206.353
X114.115 Y-206.361
X112.957 Y-208.141
X112.953 Y-208.147
X111.763 Y-209.914
X111.759 Y-209.92
X110.539 Y-211.675
X110.535 Y-211.681
X109.288 Y-213.424
X109.284 Y-213.429
X108.011 Y-215.162
X108.007 Y-215.167
X106.71 Y-216.889
X106.707 Y-216.893
X105.39 Y-218.607
X105.388 Y-218.61
X104.051 Y-220.316
X104.048 Y-220.32
X102.694 Y-222.019
X102.692 Y-222.021
X101.324 Y-223.713
X101.322 Y-223.716
X99.94 Y-225.403
X99.939 Y-225.405
X98.547 Y-227.088
X98.545 Y-227.09
X95.738 Y-230.446
X95.736 Y-230.447
X92.912 Y-233.795
G2 X92.845 Y-233.862 I-0.382 J0.322
G1 X89.445 Y-236.615
X89.443 Y-236.616
X86.037 Y-239.352
X86.035 Y-239.353
X84.327 Y-240.71
X84.325 Y-240.712
X82.613 Y-242.058
X82.611 Y-242.06
X80.893 Y-243.395
X80.891 Y-243.397
X79.168 Y-244.716
X79.165 Y-244.718
X77.435 Y-246.021
X77.431 Y-246.024
X75.694 Y-247.309
X75.69 Y-247.312
X73.945 Y-248.576
X73.94 Y-248.579
X72.185 Y-249.82
X72.18 Y-249.824
X70.416 Y-251.04
X70.41 Y-251.043
X68.635 Y-252.233
X68.629 Y-252.237
X66.841 Y-253.398
X66.835 Y-253.402
X65.035 Y-254.532
X65.028 Y-254.537
X63.215 Y-255.633
X63.207 Y-255.637
X61.38 Y-256.699
X61.373 Y-256.703
X60.454 Y-257.22
X60.45 Y-257.222
X59.527 Y-257.73
X59.522 Y-257.733
X58.595 Y-258.23
X58.591 Y-258.232
X57.66 Y-258.72
X57.655 Y-258.722
X56.719 Y-259.199
X56.715 Y-259.202
X55.775 Y-259.669
X55.77 Y-259.671
X54.826 Y-260.127
X54.821 Y-260.13
X53.872 Y-260.575
X53.867 Y-260.577
X52.914 Y-261.011
X52.908 Y-261.014
X51.95 Y-261.435
X51.944 Y-261.437
X50.982 Y-261.847
X50.976 Y-261.849
X50.008 Y-262.247
X50.003 Y-262.25
X49.03 Y-262.636
X49.024 Y-262.638
X48.047 Y-263.012
X48.041 Y-263.014
X47.058 Y-263.375
X47.053 Y-263.377
X46.067 Y-263.728
X46.061 Y-263.73
X45.069 Y-264.069
X45.064 Y-264.071
X44.068 Y-264.399
X44.063 Y-264.401
X43.062 Y-264.718
X43.057 Y-264.719
X42.053 Y-265.026
X42.047 Y-265.028
X41.039 Y-265.324
X41.034 Y-265.325
X40.021 Y-265.612
X40.016 Y-265.614
X38.999 Y-265.89
X38.995 Y-265.891
X37.975 Y-266.159
X37.968 Y-266.16
X35.915 Y-266.667
X35.907 Y-266.669
X33.84 Y-267.141
X33.832 Y-267.143
X31.753 Y-267.582
X31.745 Y-267.584
X29.653 Y-267.993
X29.646 Y-267.994
X27.542 Y-268.374
X27.536 Y-268.375
X25.421 Y-268.728
X25.415 Y-268.729
X23.291 Y-269.058
X23.285 Y-269.059
X21.151 Y-269.365
X21.147 Y-269.366
X19.005 Y-269.652
X19.
X16.851 Y-269.919
X16.847 Y-269.92
X14.691 Y-270.171
X14.687
X12.525 Y-270.407
X12.522
X10.355 Y-270.632
X10.353 Y-270.633
X8.181 Y-270.846
X8.179
X3.828 Y-271.252
X3.826
X-0.532 Y-271.641
G2 X-0.621 I-0.044 J0.498
G1 X-4.968 Y-271.251
X-4.97
X-9.31 Y-270.844
X-9.313
X-11.478 Y-270.63
X-11.481 Y-270.629
X-13.642 Y-270.404
X-13.645
X-15.801 Y-270.166
X-15.804
X-17.954 Y-269.915
X-17.958 Y-269.914
X-20.101 Y-269.645
X-20.105
X-22.241 Y-269.358
X-22.246 Y-269.357
X-24.373 Y-269.049
X-24.378 Y-269.048
X-26.496 Y-268.718
X-26.502 Y-268.717
X-28.609 Y-268.362
X-28.616 Y-268.361
X-30.713 Y-267.978
X-30.719 Y-267.977
X-32.804 Y-267.566
X-32.811 Y-267.564
X-34.883 Y-267.122
X-34.891 Y-267.12
X-36.949 Y-266.645
X-36.958 Y-266.643
X-39.001 Y-266.132
X-39.008 Y-266.13
X-40.024 Y-265.861
X-40.029 Y-265.86
X-41.041 Y-265.581
X-41.046 Y-265.58
X-42.054 Y-265.292
X-42.059 Y-265.29
X-43.063 Y-264.991
X-43.068 Y-264.99
X-44.068 Y-264.681
X-44.073 Y-264.679
X-45.068 Y-264.36
X-45.074 Y-264.358
X-46.065 Y-264.027
X-46.069 Y-264.026
X-47.056 Y-263.685
X-47.062 Y-263.682
X-48.043 Y-263.329
X-48.049 Y-263.327
X-49.026 Y-262.962
X-49.032 Y-262.96
X-50.003 Y-262.583
X-50.009 Y-262.581
X-50.976 Y-262.193
X-50.982 Y-262.19
X-51.944 Y-261.789
X-51.949 Y-261.787
X-52.906 Y-261.374
X-52.912 Y-261.371
X-53.864 Y-260.945
X-53.869 Y-260.943
X-54.816 Y-260.506
X-54.821 Y-260.504
X-55.764 Y-260.056
X-55.769 Y-260.053
X-56.707 Y-259.593
X-56.712 Y-259.59
X-57.645 Y-259.119
X-57.65 Y-259.117
X-58.578 Y-258.636
X-58.583 Y-258.633
X-59.508 Y-258.141
X-59.512 Y-258.139
X-60.432 Y-257.637
X-60.437 Y-257.634
X-61.353 Y-257.122
X-61.357 Y-257.12
X-62.27 Y-256.598
X-62.276 Y-256.594
X-64.088 Y-255.523
X-64.096 Y-255.519
X-65.894 Y-254.413
X-65.901 Y-254.408
X-67.686 Y-253.268
X-67.693 Y-253.264
X-69.464 Y-252.092
X-69.47 Y-252.088
X-71.23 Y-250.888
X-71.235 Y-250.884
X-72.984 Y-249.656
X-72.989 Y-249.653
X-74.727 Y-248.4
X-74.731 Y-248.396
X-76.46 Y-247.12
X-76.464 Y-247.117
X-78.184 Y-245.821
X-78.188 Y-245.818
X-79.9 Y-244.502
X-79.903 Y-244.5
X-81.608 Y-243.168
X-81.611 Y-243.166
X-83.31 Y-241.82
X-83.313 Y-241.818
X-85.007 Y-240.458
X-85.009 Y-240.457
X-86.699 Y-239.088
X-86.701 Y-239.086
X-90.072 Y-236.323
X-90.073 Y-236.321
X-93.437 Y-233.542
G2 X-93.503 Y-233.476 I0.318 J0.385
G1 X-96.278 Y-230.124
X-96.28 Y-230.122
X-99.038 Y-226.763
X-99.04 Y-226.761
X-100.407 Y-225.076
X-100.409 Y-225.074
X-101.767 Y-223.386
X-101.769 Y-223.384
X-103.114 Y-221.69
X-103.116 Y-221.687
X-104.446 Y-219.987
X-104.448 Y-219.984
X-105.762 Y-218.278
X-105.765 Y-218.274
X-107.06 Y-216.559
X-107.063 Y-216.555
X-108.337 Y-214.833
X-108.34 Y-214.829
X-109.591 Y-213.096
X-109.595 Y-213.091
X-110.821 Y-211.349
X-110.825 Y-211.343
X-112.025 Y-209.589
X-112.029 Y-209.583
X-113.199 Y-207.817
X-113.203 Y-207.811
X-114.342 Y-206.032
X-114.346 Y-206.025
X-115.452 Y-204.233
X-115.457 Y-204.225
X-116.527 Y-202.418
X-116.531 Y-202.412
X-117.053 Y-201.503
X-117.055 Y-201.499
X-117.567 Y-200.586
X-117.57 Y-200.581
X-118.071 Y-199.664
X-118.073 Y-199.659
X-118.565 Y-198.737
X-118.568 Y-198.732
X-119.049 Y-197.806
X-119.051 Y-197.802
X-119.522 Y-196.872
X-119.525 Y-196.867
X-119.985 Y-195.933
X-119.987 Y-195.927
X-120.435 Y-194.988
X-120.438 Y-194.983
X-120.876 Y-194.039
X-120.878 Y-194.033
X-121.303 Y-193.084
X-121.306 Y-193.079
X-121.72 Y-192.125
X-121.722 Y-192.119
X-122.123 Y-191.161
X-122.126 Y-191.155
X-122.515 Y-190.191
X-122.517 Y-190.185
X-122.894 Y-189.216
X-122.896 Y-189.21
X-123.261 Y-188.236
X-123.263 Y-188.231
X-123.616 Y-187.253
X-123.618 Y-187.247
X-123.96 Y-186.264
X-123.962 Y-186.259
X-124.293 Y-185.271
X-124.295 Y-185.266
X-124.615 Y-184.273
X-124.617 Y-184.268
X-124.926 Y-183.271
X-124.927 Y-183.266
X-125.226 Y-182.265
X-125.228 Y-182.26
X-125.517 Y-181.255
X-125.518 Y-181.25
X-125.797 Y-180.241
X-125.798 Y-180.237
X-126.068 Y-179.224
X-126.07 Y-179.217
X-126.581 Y-177.18
X-126.583 Y-177.171
X-127.06 Y-175.119
X-127.062 Y-175.111
X-127.505 Y-173.045
X-127.506 Y-173.037
X-127.918 Y-170.959
X-127.92 Y-170.952
X-128.304 Y-168.861
X-128.305 Y-168.855
X-128.661 Y-166.754
X-128.662 Y-166.748
X-128.994 Y-164.636
X-128.995 Y-164.63
X-129.304 Y-162.51
Y-162.505
X-129.592 Y-160.375
X-129.593 Y-160.371
X-129.863 Y-158.234
X-129.864 Y-158.23
X-130.117 Y-156.086
Y-156.082
X-130.356 Y-153.932
Y-153.929
X-130.582 Y-151.774
Y-151.772
X-130.799 Y-149.613
X-130.8 Y-149.61
X-131.209 Y-145.282
Y-145.28
X-131.602 Y-140.945
G2 X-131.604 Y-140.9 I0.498 J0.045
G1 Y-41.881
G3 X-131.704 Y-41.781 I-0.1 J0.
G1 X-131.804
X-131.842 Z-0.992
X-131.875 Z-0.971
X-131.896 Z-0.938
X-131.904 Z-0.9
G0 Z15.
M5
G53 Z0.
M30
