(Letter_N)
(T1  D=1. CR=0.5 - ZMIN=-1. - ball end mill)
G90
G0 G53 Z0.

(2D Contour21)
T1 M6 (ball end mill D=1. drag knife)
S47747 M3
G64
G54
G43 H1
G0 X-143.036 Y-100.166
Z15.
Z5.
G1 Z1. F9549.3
Z-0.9
X-143.028 Z-0.938
X-143.007 Z-0.971
X-142.974 Z-0.992
X-142.936 Z-1.
X-142.836
G3 X-142.736 Y-100.066 I0. J0.1
G1 Y267.773
G2 X-142.236 Y268.273 I0.5 J0.
G1 X-42.984
G2 X-42.501 Y267.902 I0. J-0.5
G1 X50.623 Y-80.228
Y267.773
G2 X51.123 Y268.273 I0.5 J0.
G1 X142.236
G2 X142.736 Y267.773 I0. J-0.5
G1 Y-267.773
G2 X142.236 Y-268.273 I-0.5 J0.
G1 X47.049
G2 X46.569 Y-267.914 I0. J0.5
G1 X-50.916 Y64.183
Y-267.773
G2 X-51.416 Y-268.273 I-0.5 J0.
G1 X-142.236
G2 X-142.736 Y-267.773 I0. J0.5
G1 Y-100.066
G3 X-142.836 Y-99.966 I-0.1 J0.
G1 X-142.936
X-142.974 Z-0.992
X-143.007 Z-0.971
X-143.028 Z-0.938
X-143.036 Z-0.9
G0 Z15.
M5
G53 Z0.
M30
