(Letter_P)
(T1  D=1. CR=0.5 - ZMIN=-1. - ball end mill)
G90
G0 G53 Z0.

(2D Contour21)
T1 M6 (ball end mill D=1. drag knife)
S47747 M3
G64
G54
G43 H1
G0 X-38.458 Y106.249
Z15.
Z5.
G1 Z1. F9549.3
Z-0.9
X-38.465 Z-0.938
X-38.487 Z-0.971
X-38.52 Z-0.992
X-38.558 Z-1.
X-38.658
G3 X-38.758 Y106.149 I0. J-0.1
G1 Y20.129
X2.147
X3.435 Y20.245
X4.741 Y20.368
X6.041 Y20.501
X7.332 Y20.649
X8.613 Y20.817
X9.882 Y21.01
X11.137 Y21.232
X11.756 Y21.356
X12.372 Y21.489
X12.983 Y21.632
X13.59 Y21.785
X14.191 Y21.949
X14.786 Y22.125
X15.376 Y22.313
X15.959 Y22.514
X16.537 Y22.729
X17.108 Y22.957
X17.673 Y23.2
X18.232 Y23.458
X18.786 Y23.73
X19.335 Y24.015
X19.879 Y24.313
X20.419 Y24.623
X20.955 Y24.945
X21.487 Y25.278
X22.015 Y25.621
X22.538 Y25.974
X23.58 Y26.708
X24.609 Y27.472
X25.629 Y28.264
X26.643 Y29.077
X27.652 Y29.906
X28.658 Y30.747
X29.627 Y31.564
X30.423 Y32.545
X31.243 Y33.563
X32.051 Y34.583
X32.844 Y35.608
X33.616 Y36.639
X34.361 Y37.678
X35.076 Y38.728
X35.757 Y39.791
X36.081 Y40.325
X36.396 Y40.865
X36.699 Y41.408
X36.99 Y41.956
X37.269 Y42.508
X37.535 Y43.064
X37.787 Y43.626
X38.025 Y44.193
X38.249 Y44.765
X38.459 Y45.344
X38.657 Y45.929
X38.841 Y46.519
X39.014 Y47.115
X39.175 Y47.716
X39.325 Y48.322
X39.465 Y48.931
X39.718 Y50.169
X39.937 Y51.42
X40.127 Y52.685
X40.292 Y53.962
X40.439 Y55.25
X40.571 Y56.545
X40.693 Y57.846
X40.809 Y59.129
Y135.414
X40.729 Y136.741
X40.644 Y138.078
X40.549 Y139.411
X40.44 Y140.735
X40.313 Y142.051
X40.161 Y143.356
X39.981 Y144.648
X39.768 Y145.927
X39.648 Y146.559
X39.518 Y147.187
X39.378 Y147.81
X39.226 Y148.43
X39.062 Y149.044
X38.886 Y149.653
X38.698 Y150.256
X38.496 Y150.854
X38.28 Y151.447
X38.049 Y152.033
X37.804 Y152.615
X37.545 Y153.192
X37.272 Y153.764
X36.986 Y154.333
X36.689 Y154.898
X36.38 Y155.459
X36.06 Y156.015
X35.731 Y156.568
X35.041 Y157.67
X34.32 Y158.761
X33.571 Y159.842
X32.799 Y160.918
X32.01 Y161.99
X31.209 Y163.058
X30.44 Y164.077
X29.445 Y164.863
X28.4 Y165.682
X27.352 Y166.489
X26.299 Y167.279
X25.239 Y168.046
X24.172 Y168.784
X23.091 Y169.489
X22.549 Y169.826
X22.002 Y170.154
X21.451 Y170.47
X20.896 Y170.774
X20.337 Y171.066
X19.774 Y171.345
X19.206 Y171.611
X18.633 Y171.863
X18.055 Y172.099
X17.471 Y172.319
X16.881 Y172.526
X16.284 Y172.72
X15.683 Y172.9
X15.076 Y173.068
X14.463 Y173.223
X13.845 Y173.368
X13.223 Y173.501
X12.598 Y173.624
X11.329 Y173.843
X10.047 Y174.028
X8.751 Y174.184
X7.444 Y174.315
X6.127 Y174.428
X4.803 Y174.525
X3.473 Y174.613
X2.154 Y174.695
X-38.758
Y106.149
G3 X-38.658 Y106.049 I0.1 J0.
G1 X-38.558
X-38.52 Z-0.992
X-38.487 Z-0.971
X-38.465 Z-0.938
X-38.458 Z-0.9
G0 Z15.

(2D Contour22)
G64
X-130.878 Y-113.219
Z15.
Z5.
G1 Z1. F9549.3
Z-0.9
X-130.87 Z-0.938
X-130.849 Z-0.971
X-130.816 Z-0.992
X-130.778 Z-1.
X-130.678
G3 X-130.578 Y-113.119 I0. J0.1
G1 Y267.773
G2 X-130.078 Y268.273 I0.5 J0.
G1 X0.142
G2 X0.187 Y268.271 I0. J-0.5
G1 X4.888 Y267.849
X4.89
X9.584 Y267.408
X9.586
X11.927 Y267.175
X11.93 Y267.174
X14.265 Y266.928
X14.269
X16.598 Y266.668
X16.601
X18.923 Y266.392
X18.927 Y266.391
X21.24 Y266.095
X21.245 Y266.094
X23.549 Y265.777
X23.554
X25.847 Y265.436
X25.853 Y265.435
X28.134 Y265.068
X28.141 Y265.067
X30.409 Y264.671
X30.416 Y264.669
X32.671 Y264.243
X32.679 Y264.242
X34.919 Y263.782
X34.927 Y263.78
X37.151 Y263.284
X37.157 Y263.283
X38.263 Y263.021
X38.268 Y263.019
X39.369 Y262.747
X39.374 Y262.746
X40.47 Y262.464
X40.475 Y262.463
X41.568 Y262.17
X41.572 Y262.169
X42.66 Y261.866
X42.665 Y261.864
X43.747 Y261.55
X43.753 Y261.549
X44.83 Y261.223
X44.835 Y261.221
X45.907 Y260.884
X45.913 Y260.882
X46.98 Y260.533
X46.985 Y260.531
X48.047 Y260.17
X48.053 Y260.168
X49.109 Y259.794
X49.114 Y259.792
X50.164 Y259.406
X50.171 Y259.404
X51.215 Y259.004
X51.221 Y259.002
X52.259 Y258.589
X52.266 Y258.586
X53.298 Y258.159
X53.304 Y258.156
X54.33 Y257.715
X54.337 Y257.713
X55.356 Y257.258
X55.363 Y257.255
X56.376 Y256.786
X56.382 Y256.783
X57.389 Y256.299
X57.395 Y256.296
X58.396 Y255.799
X58.402 Y255.796
X59.397 Y255.285
X59.403 Y255.282
X60.392 Y254.758
X60.397 Y254.755
X61.38 Y254.218
X61.386 Y254.215
X62.363 Y253.666
X62.369 Y253.663
X63.341 Y253.101
X63.346 Y253.098
X64.313 Y252.524
X64.317 Y252.521
X65.279 Y251.936
X65.284 Y251.933
X66.24 Y251.336
X66.245 Y251.333
X67.196 Y250.725
X67.201 Y250.723
X68.147 Y250.105
X68.152 Y250.102
X69.094 Y249.473
X69.098 Y249.47
X70.036 Y248.831
X70.04 Y248.829
X70.973 Y248.18
X70.976 Y248.177
X71.906 Y247.519
X71.911 Y247.515
X73.757 Y246.171
X73.763 Y246.166
X75.594 Y244.788
X75.6 Y244.784
X77.417 Y243.374
X77.422 Y243.37
X79.226 Y241.931
X79.23 Y241.927
X81.022 Y240.46
X81.026 Y240.456
X82.807 Y238.965
X82.811 Y238.962
X84.581 Y237.449
X84.585 Y237.446
X86.347 Y235.913
X86.349 Y235.911
X88.104 Y234.362
X88.106 Y234.359
X89.854 Y232.794
X89.856 Y232.793
X91.599 Y231.216
X91.601 Y231.214
X95.073 Y228.034
X95.075 Y228.032
X98.539 Y224.831
G2 X98.596 Y224.769 I-0.339 J-0.367
G1 X101.066 Y221.555
X101.068 Y221.553
X103.522 Y218.332
X103.524 Y218.33
X104.739 Y216.715
X104.74 Y216.713
X105.945 Y215.095
X105.947 Y215.092
X107.14 Y213.469
X107.142 Y213.466
X108.32 Y211.837
X108.323 Y211.834
X109.485 Y210.199
X109.487 Y210.195
X110.63 Y208.552
X110.633 Y208.547
X111.755 Y206.897
X111.759 Y206.892
X112.858 Y205.234
X112.861 Y205.229
X113.936 Y203.561
X113.94 Y203.555
X114.987 Y201.876
X114.991 Y201.869
X116.01 Y200.18
X116.014 Y200.173
X117.001 Y198.472
X117.006 Y198.464
X117.96 Y196.75
X117.964 Y196.742
X118.883 Y195.015
X118.887 Y195.008
X119.332 Y194.139
X119.334 Y194.135
X119.77 Y193.263
X119.773 Y193.258
X120.199 Y192.382
X120.201 Y192.377
X120.617 Y191.497
X120.619 Y191.492
X121.025 Y190.608
X121.028 Y190.602
X121.423 Y189.714
X121.425 Y189.709
X121.809 Y188.817
X121.812 Y188.811
X122.185 Y187.915
X122.187 Y187.909
X122.548 Y187.008
X122.55 Y187.002
X122.9 Y186.097
X122.902 Y186.092
X123.241 Y185.183
X123.244 Y185.176
X123.571 Y184.262
X123.573 Y184.257
X123.889 Y183.34
X123.891 Y183.334
X124.196 Y182.412
X124.197 Y182.407
X124.492 Y181.481
X124.494 Y181.475
X124.779 Y180.546
X124.781 Y180.54
X125.055 Y179.607
X125.056 Y179.602
X125.321 Y178.664
X125.323 Y178.658
X125.577 Y177.718
X125.578 Y177.714
X125.824 Y176.769
X125.826 Y176.762
X126.29 Y174.863
X126.292 Y174.853
X126.72 Y172.94
X126.722 Y172.932
X127.118 Y171.007
X127.119 Y170.999
X127.484 Y169.062
X127.486 Y169.054
X127.821 Y167.106
X127.822 Y167.098
X128.129 Y165.14
X128.13 Y165.134
X128.412 Y163.166
X128.413 Y163.16
X128.671 Y161.183
X128.672 Y161.177
X128.908 Y159.191
Y159.186
X129.124 Y157.193
X129.125 Y157.188
X129.322 Y155.188
Y155.184
X129.503 Y153.178
Y153.174
X129.67 Y151.162
X129.671 Y151.159
X129.824 Y149.142
Y149.138
X130.099 Y145.093
Y145.089
X130.346 Y141.032
Y141.03
X130.577 Y136.968
G2 X130.578 Y136.94 I-0.499 J-0.028
G1 Y60.809
G2 X130.576 Y60.764 I-0.5 J0.
G1 X130.177 Y56.423
Y56.421
X129.761 Y52.088
X129.76 Y52.085
X129.541 Y49.923
Y49.921
X129.312 Y47.763
Y47.76
X129.07 Y45.607
X129.069 Y45.604
X128.813 Y43.457
Y43.453
X128.54 Y41.312
X128.539 Y41.308
X128.248 Y39.175
Y39.171
X127.937 Y37.046
X127.936 Y37.041
X127.601 Y34.926
X127.6 Y34.92
X127.241 Y32.815
X127.24 Y32.809
X126.855 Y30.715
X126.853 Y30.708
X126.438 Y28.626
X126.437 Y28.618
X125.992 Y26.549
X125.99 Y26.541
X125.512 Y24.485
X125.51 Y24.476
X124.996 Y22.434
X124.994 Y22.428
X124.724 Y21.413
X124.723 Y21.408
X124.443 Y20.397
X124.441 Y20.392
X124.151 Y19.384
X124.15 Y19.38
X123.851 Y18.377
X123.85 Y18.371
X123.54 Y17.372
X123.538 Y17.367
X123.217 Y16.372
X123.215 Y16.367
X122.884 Y15.377
X122.882 Y15.372
X122.54 Y14.386
X122.538 Y14.38
X122.184 Y13.399
X122.182 Y13.394
X121.817 Y12.418
X121.815 Y12.412
X121.438 Y11.44
X121.436 Y11.435
X121.047 Y10.468
X121.044 Y10.462
X120.642 Y9.5
X120.64 Y9.495
X120.227 Y8.539
X120.225 Y8.533
X119.8 Y7.581
X119.797 Y7.576
X119.36 Y6.629
X119.358 Y6.623
X118.91 Y5.681
X118.907 Y5.676
X118.448 Y4.738
X118.446 Y4.733
X117.976 Y3.8
X117.973 Y3.795
X117.492 Y2.866
X117.49 Y2.861
X116.999 Y1.936
X116.996 Y1.932
X116.496 Y1.011
X116.494 Y1.006
X115.983 Y0.09
X115.98 Y0.086
X115.46 Y-0.827
X115.457 Y-0.833
X114.39 Y-2.648
X114.385 Y-2.656
X113.282 Y-4.456
X113.278 Y-4.463
X112.143 Y-6.249
X112.139 Y-6.256
X110.973 Y-8.03
X110.969 Y-8.036
X109.774 Y-9.798
X109.77 Y-9.804
X108.549 Y-11.555
X108.546 Y-11.56
X107.3 Y-13.301
X107.296 Y-13.306
X106.027 Y-15.038
X106.024 Y-15.042
X104.735 Y-16.766
X104.733 Y-16.769
X103.425 Y-18.485
X103.422 Y-18.488
X102.098 Y-20.198
X102.096 Y-20.201
X100.757 Y-21.904
X100.755 Y-21.906
X99.404 Y-23.605
X99.403 Y-23.607
X98.042 Y-25.301
X98.04 Y-25.303
X95.295 Y-28.682
X95.294 Y-28.683
X92.532 Y-32.056
G2 X92.468 Y-32.121 I-0.387 J0.317
G1 X89.142 Y-34.929
X89.14 Y-34.931
X85.807 Y-37.722
X85.805 Y-37.724
X84.134 Y-39.108
X84.132 Y-39.11
X82.456 Y-40.484
X82.453 Y-40.485
X80.772 Y-41.847
X80.77 Y-41.849
X79.082 Y-43.196
X79.079 Y-43.198
X77.385 Y-44.528
X77.381 Y-44.531
X75.679 Y-45.842
X75.675 Y-45.845
X73.964 Y-47.135
X73.96 Y-47.139
X72.239 Y-48.406
X72.234 Y-48.41
X70.503 Y-49.652
X70.498 Y-49.656
X68.755 Y-50.871
X68.749 Y-50.875
X66.995 Y-52.061
X66.988 Y-52.065
X65.22 Y-53.22
X65.213 Y-53.224
X63.431 Y-54.345
X63.423 Y-54.35
X61.627 Y-55.436
X61.62 Y-55.439
X60.716 Y-55.968
X60.712 Y-55.971
X59.804 Y-56.49
X59.799 Y-56.492
X58.887 Y-57.001
X58.882 Y-57.004
X57.965 Y-57.503
X57.961 Y-57.506
X57.039 Y-57.994
X57.035 Y-57.997
X56.109 Y-58.474
X56.104 Y-58.477
X55.174 Y-58.944
X55.168 Y-58.947
X54.234 Y-59.402
X54.228 Y-59.405
X53.288 Y-59.849
X53.283 Y-59.852
X52.338 Y-60.284
X52.332 Y-60.287
X51.383 Y-60.707
X51.377 Y-60.71
X50.422 Y-61.118
X50.416 Y-61.12
X49.456 Y-61.516
X49.45 Y-61.518
X48.485 Y-61.902
X48.479 Y-61.904
X47.509 Y-62.275
X47.503 Y-62.278
X46.528 Y-62.637
X46.522 Y-62.639
X45.542 Y-62.987
X45.537 Y-62.989
X44.552 Y-63.326
X44.546 Y-63.328
X43.557 Y-63.654
X43.552 Y-63.656
X42.558 Y-63.971
X42.553 Y-63.972
X41.554 Y-64.277
X41.549 Y-64.279
X40.547 Y-64.573
X40.542 Y-64.574
X39.535 Y-64.859
X39.531 Y-64.86
X38.52 Y-65.135
X38.513 Y-65.137
X36.48 Y-65.659
X36.471 Y-65.661
X34.423 Y-66.147
X34.414 Y-66.149
X32.352 Y-66.602
X32.345 Y-66.604
X30.269 Y-67.025
X30.262 Y-67.027
X28.174 Y-67.419
X28.168 Y-67.42
X26.069 Y-67.785
X26.063 Y-67.786
X23.953 Y-68.126
X23.947 Y-68.127
X21.828 Y-68.444
X21.823
X19.695 Y-68.74
X19.691 Y-68.741
X17.555 Y-69.018
X17.551
X15.408 Y-69.279
X15.404
X13.255 Y-69.525
X13.252
X11.098 Y-69.759
X11.095
X8.937 Y-69.982
X8.934
X4.607 Y-70.404
X4.605 Y-70.405
X0.271 Y-70.81
G2 X0.224 Y-70.813 I-0.047 J0.498
G1 X-38.758
Y-267.773
G2 X-39.258 Y-268.273 I-0.5 J0.
G1 X-130.078
G2 X-130.578 Y-267.773 I0. J0.5
G1 Y-113.119
G3 X-130.678 Y-113.019 I-0.1 J0.
G1 X-130.778
X-130.816 Z-0.992
X-130.849 Z-0.971
X-130.87 Z-0.938
X-130.878 Z-0.9
G0 Z15.
M5
G53 Z0.
M30
