(Letter_O)
(T1  D=1. CR=0.5 - ZMIN=-1. - ball end mill)
G90
G0 G53 Z0.

(2D Contour21)
T1 M6 (ball end mill D=1. drag knife)
S47747 M3
G64
G54
G43 H1
G0 X-40.948 Y-43.68
Z15.
Z5.
G1 Z1. F9549.3
Z-0.9
X-40.956 Z-0.938
X-40.977 Z-0.971
X-41.01 Z-0.992
X-41.048 Z-1.
X-41.148
G3 X-41.248 Y-43.78 I0. J-0.1
G1 Y-142.502
X-41.13 Y-143.787
X-41.005 Y-145.092
X-40.87 Y-146.39
X-40.72 Y-147.68
X-40.55 Y-148.96
X-40.356 Y-150.227
X-40.132 Y-151.482
X-40.008 Y-152.1
X-39.874 Y-152.716
X-39.731 Y-153.326
X-39.577 Y-153.932
X-39.412 Y-154.533
X-39.236 Y-155.129
X-39.047 Y-155.717
X-38.846 Y-156.301
X-38.631 Y-156.879
X-38.402 Y-157.449
X-38.159 Y-158.014
X-37.901 Y-158.573
X-37.63 Y-159.128
X-37.345 Y-159.677
X-37.047 Y-160.222
X-36.738 Y-160.762
X-36.416 Y-161.298
X-36.084 Y-161.831
X-35.742 Y-162.359
X-35.391 Y-162.883
X-34.659 Y-163.926
X-33.897 Y-164.957
X-33.109 Y-165.978
X-32.3 Y-166.994
X-31.474 Y-168.004
X-30.636 Y-169.013
X-29.822 Y-169.985
X-28.851 Y-170.786
X-27.844 Y-171.611
X-26.835 Y-172.424
X-25.821 Y-173.222
X-24.801 Y-173.998
X-23.772 Y-174.75
X-22.734 Y-175.47
X-21.681 Y-176.156
X-21.152 Y-176.482
X-20.617 Y-176.8
X-20.079 Y-177.106
X-19.536 Y-177.4
X-18.989 Y-177.682
X-18.437 Y-177.951
X-17.881 Y-178.206
X-17.319 Y-178.447
X-16.75 Y-178.673
X-16.176 Y-178.887
X-15.596 Y-179.086
X-15.01 Y-179.274
X-14.418 Y-179.449
X-13.821 Y-179.614
X-13.219 Y-179.766
X-12.614 Y-179.909
X-11.385 Y-180.166
X-10.141 Y-180.39
X-8.883 Y-180.584
X-7.612 Y-180.754
X-6.331 Y-180.905
X-5.042 Y-181.042
X-3.747 Y-181.167
X-2.494 Y-181.285
X-1.229 Y-181.171
X0.077 Y-181.048
X1.377 Y-180.916
X2.669 Y-180.769
X3.95 Y-180.602
X5.219 Y-180.411
X6.476 Y-180.188
X7.095 Y-180.066
X7.712 Y-179.934
X8.324 Y-179.792
X8.931 Y-179.639
X9.532 Y-179.476
X10.129 Y-179.301
X10.719 Y-179.114
X11.304 Y-178.914
X11.883 Y-178.701
X12.455 Y-178.474
X13.021 Y-178.232
X13.582 Y-177.975
X14.137 Y-177.705
X14.688 Y-177.421
X15.233 Y-177.125
X15.775 Y-176.816
X16.313 Y-176.497
X16.846 Y-176.165
X17.376 Y-175.824
X17.901 Y-175.474
X18.946 Y-174.744
X19.98 Y-173.983
X21.004 Y-173.197
X22.022 Y-172.389
X23.035 Y-171.564
X24.046 Y-170.728
X25.02 Y-169.916
X25.819 Y-168.943
X26.643 Y-167.934
X27.455 Y-166.921
X28.251 Y-165.904
X29.027 Y-164.881
X29.776 Y-163.85
X30.495 Y-162.808
X31.179 Y-161.752
X31.505 Y-161.221
X31.821 Y-160.686
X32.125 Y-160.146
X32.418 Y-159.602
X32.699 Y-159.053
X32.966 Y-158.5
X33.22 Y-157.942
X33.46 Y-157.378
X33.685 Y-156.809
X33.897 Y-156.233
X34.095 Y-155.652
X34.281 Y-155.064
X34.455 Y-154.471
X34.617 Y-153.873
X34.769 Y-153.269
X34.91 Y-152.663
X35.165 Y-151.431
X35.386 Y-150.185
X35.578 Y-148.924
X35.745 Y-147.652
X35.893 Y-146.369
X36.027 Y-145.078
X36.151 Y-143.78
X36.268 Y-142.502
Y144.554
X36.152 Y145.837
X36.03 Y147.139
X35.898 Y148.436
X35.752 Y149.725
X35.586 Y151.003
X35.396 Y152.268
X35.176 Y153.519
X34.922 Y154.756
X34.781 Y155.365
X34.63 Y155.971
X34.467 Y156.572
X34.294 Y157.167
X34.108 Y157.756
X33.909 Y158.339
X33.698 Y158.917
X33.472 Y159.49
X33.232 Y160.055
X32.977 Y160.615
X32.709 Y161.169
X32.428 Y161.72
X32.134 Y162.265
X31.828 Y162.807
X31.51 Y163.344
X31.182 Y163.877
X30.843 Y164.407
X30.496 Y164.932
X29.772 Y165.977
X29.018 Y167.011
X28.238 Y168.036
X27.436 Y169.055
X26.619 Y170.069
X25.789 Y171.08
X24.984 Y172.055
X24.01 Y172.86
X22.999 Y173.689
X21.985 Y174.507
X20.966 Y175.309
X19.941 Y176.088
X18.908 Y176.842
X17.862 Y177.566
X17.336 Y177.914
X16.807 Y178.252
X16.273 Y178.581
X15.736 Y178.898
X15.195 Y179.204
X14.649 Y179.498
X14.099 Y179.779
X13.544 Y180.048
X12.984 Y180.302
X12.419 Y180.542
X11.847 Y180.768
X11.27 Y180.98
X10.686 Y181.178
X10.096 Y181.364
X9.501 Y181.538
X8.9 Y181.7
X8.295 Y181.852
X7.686 Y181.992
X6.449 Y182.246
X5.198 Y182.465
X3.932 Y182.656
X2.654 Y182.823
X1.366 Y182.969
X0.069 Y183.1
X-1.233 Y183.223
X-2.494 Y183.336
X-3.746 Y183.221
X-5.039 Y183.097
X-6.325 Y182.964
X-7.604 Y182.817
X-8.873 Y182.649
X-10.13 Y182.459
X-11.372 Y182.239
X-12.601 Y181.985
X-13.205 Y181.845
X-13.807 Y181.693
X-14.404 Y181.532
X-14.996 Y181.359
X-15.582 Y181.175
X-16.162 Y180.978
X-16.736 Y180.767
X-17.305 Y180.543
X-17.867 Y180.305
X-18.424 Y180.053
X-18.977 Y179.787
X-19.525 Y179.509
X-20.068 Y179.218
X-20.608 Y178.915
X-21.143 Y178.602
X-21.673 Y178.278
X-22.728 Y177.599
X-23.769 Y176.886
X-24.8 Y176.142
X-25.823 Y175.374
X-26.84 Y174.584
X-27.852 Y173.778
X-28.862 Y172.962
X-29.835 Y172.169
X-30.652 Y171.195
X-31.494 Y170.182
X-32.325 Y169.168
X-33.138 Y168.148
X-33.93 Y167.123
X-34.695 Y166.088
X-35.429 Y165.04
X-35.781 Y164.514
X-36.124 Y163.983
X-36.457 Y163.449
X-36.779 Y162.91
X-37.089 Y162.367
X-37.386 Y161.82
X-37.671 Y161.268
X-37.942 Y160.711
X-38.199 Y160.149
X-38.442 Y159.581
X-38.67 Y159.007
X-38.883 Y158.427
X-39.083 Y157.84
X-39.271 Y157.247
X-39.446 Y156.648
X-39.609 Y156.045
X-39.762 Y155.436
X-39.903 Y154.822
X-40.036 Y154.202
X-40.158 Y153.582
X-40.379 Y152.32
X-40.569 Y151.047
X-40.735 Y149.76
X-40.881 Y148.463
X-41.012 Y147.158
X-41.134 Y145.847
X-41.248 Y144.554
Y-43.78
G3 X-41.148 Y-43.88 I0.1 J0.
G1 X-41.048
X-41.01 Z-0.992
X-40.977 Z-0.971
X-40.956 Z-0.938
X-40.948 Z-0.9
G0 Z15.

(2D Contour22)
G64
X-131.904 Y-56.333
Z15.
Z5.
G1 Z1. F9549.3
Z-0.9
X-131.896 Z-0.938
X-131.875 Z-0.971
X-131.842 Z-0.992
X-131.804 Z-1.
X-131.704
G3 X-131.604 Y-56.233 I0. J0.1
G1 Y142.946
G2 X-131.602 Y142.991 I0.5 J0.
G1 X-131.203 Y147.368
Y147.37
X-130.788 Y151.74
X-130.787 Y151.743
X-130.567 Y153.923
Y153.925
X-130.338 Y156.101
Y156.104
X-130.096 Y158.275
Y158.279
X-129.839 Y160.444
X-129.838 Y160.448
X-129.564 Y162.606
X-129.563 Y162.61
X-129.271 Y164.76
Y164.766
X-128.957 Y166.907
X-128.956 Y166.912
X-128.62 Y169.044
X-128.619 Y169.05
X-128.258 Y171.171
X-128.257 Y171.178
X-127.868 Y173.289
X-127.866 Y173.296
X-127.448 Y175.394
X-127.447 Y175.401
X-126.998 Y177.486
X-126.996 Y177.495
X-126.513 Y179.566
X-126.511 Y179.574
X-125.993 Y181.631
X-125.991 Y181.638
X-125.718 Y182.66
X-125.717 Y182.665
X-125.434 Y183.683
X-125.432 Y183.688
X-125.139 Y184.703
X-125.138 Y184.708
X-124.835 Y185.718
X-124.833 Y185.723
X-124.52 Y186.729
X-124.519 Y186.734
X-124.195 Y187.735
X-124.193 Y187.741
X-123.857 Y188.738
X-123.855 Y188.743
X-123.509 Y189.735
X-123.507 Y189.74
X-123.149 Y190.728
X-123.147 Y190.734
X-122.778 Y191.716
X-122.776 Y191.722
X-122.394 Y192.7
X-122.391 Y192.706
X-121.997 Y193.678
X-121.995 Y193.683
X-121.589 Y194.651
X-121.586 Y194.658
X-121.167 Y195.62
X-121.165 Y195.625
X-120.734 Y196.582
X-120.731 Y196.588
X-120.288 Y197.54
X-120.286 Y197.545
X-119.832 Y198.493
X-119.829 Y198.499
X-119.363 Y199.442
X-119.361 Y199.446
X-118.885 Y200.384
X-118.882 Y200.39
X-118.394 Y201.324
X-118.392 Y201.328
X-117.895 Y202.257
X-117.892 Y202.262
X-117.383 Y203.188
X-117.381 Y203.192
X-116.863 Y204.113
X-116.861 Y204.117
X-116.334 Y205.034
X-116.33 Y205.041
X-115.246 Y206.864
X-115.241 Y206.871
X-114.121 Y208.678
X-114.117 Y208.685
X-112.964 Y210.479
X-112.959 Y210.486
X-111.775 Y212.267
X-111.771 Y212.273
X-110.556 Y214.042
X-110.552 Y214.047
X-109.311 Y215.804
X-109.308 Y215.81
X-108.041 Y217.557
X-108.038 Y217.561
X-106.749 Y219.298
X-106.745 Y219.302
X-105.434 Y221.031
X-105.432 Y221.035
X-104.102 Y222.756
X-104.099 Y222.759
X-102.753 Y224.473
X-102.751 Y224.476
X-101.389 Y226.183
X-101.387 Y226.185
X-100.014 Y227.888
X-100.012 Y227.89
X-98.628 Y229.588
X-98.626 Y229.59
X-95.834 Y232.977
X-95.833 Y232.979
X-93.024 Y236.359
G2 X-92.96 Y236.423 I0.385 J-0.32
G1 X-89.616 Y239.205
X-89.614 Y239.207
X-86.264 Y241.972
X-86.262 Y241.973
X-84.582 Y243.344
X-84.58 Y243.346
X-82.896 Y244.707
X-82.893 Y244.709
X-81.204 Y246.058
X-81.201 Y246.06
X-79.506 Y247.394
X-79.503 Y247.396
X-77.8 Y248.714
X-77.797 Y248.717
X-76.087 Y250.017
X-76.083 Y250.02
X-74.364 Y251.298
X-74.36 Y251.301
X-72.632 Y252.558
X-72.627 Y252.562
X-70.889 Y253.793
X-70.884 Y253.797
X-69.134 Y255.002
X-69.128 Y255.006
X-67.367 Y256.182
X-67.361 Y256.186
X-65.587 Y257.331
X-65.58 Y257.336
X-63.792 Y258.448
X-63.784 Y258.452
X-61.982 Y259.529
X-61.976 Y259.533
X-61.07 Y260.058
X-61.065 Y260.06
X-60.154 Y260.575
X-60.15 Y260.578
X-59.235 Y261.084
X-59.231 Y261.086
X-58.312 Y261.581
X-58.307 Y261.583
X-57.384 Y262.069
X-57.379 Y262.072
X-56.451 Y262.546
X-56.446 Y262.549
X-55.514 Y263.013
X-55.509 Y263.015
X-54.572 Y263.468
X-54.567 Y263.471
X-53.626 Y263.913
X-53.62 Y263.915
X-52.674 Y264.345
X-52.668 Y264.348
X-51.717 Y264.766
X-51.711 Y264.768
X-50.755 Y265.174
X-50.749 Y265.177
X-49.788 Y265.571
X-49.782 Y265.573
X-48.816 Y265.954
X-48.81 Y265.956
X-47.839 Y266.326
X-47.833 Y266.328
X-46.857 Y266.686
X-46.852 Y266.688
X-45.871 Y267.035
X-45.865 Y267.037
X-44.88 Y267.372
X-44.875 Y267.374
X-43.885 Y267.699
X-43.879 Y267.701
X-42.885 Y268.015
X-42.88 Y268.016
X-41.881 Y268.32
X-41.876 Y268.322
X-40.873 Y268.615
X-40.868 Y268.616
X-39.861 Y268.9
X-39.856 Y268.902
X-38.845 Y269.176
X-38.839 Y269.177
X-36.805 Y269.698
X-36.797 Y269.701
X-34.748 Y270.186
X-34.74 Y270.187
X-32.678 Y270.639
X-32.671 Y270.641
X-30.596 Y271.062
X-30.589 Y271.063
X-28.502 Y271.455
X-28.496 Y271.457
X-26.398 Y271.823
X-26.392 Y271.824
X-24.283 Y272.164
X-24.278
X-22.16 Y272.482
X-22.155
X-20.029 Y272.779
X-20.024 Y272.78
X-17.89 Y273.058
X-17.886
X-15.745 Y273.32
X-15.741 Y273.321
X-13.594 Y273.568
X-13.592
X-11.439 Y273.803
X-11.437
X-9.28 Y274.027
X-9.278 Y274.028
X-4.955 Y274.454
X-4.953
X-0.624 Y274.863
G2 X-0.531 I0.047 J-0.498
G1 X3.855 Y274.463
X3.857
X8.236 Y274.047
X8.239 Y274.046
X10.424 Y273.826
X10.426
X12.607 Y273.596
X12.61
X14.785 Y273.353
X14.789
X16.958 Y273.095
X16.962 Y273.094
X19.124 Y272.82
X19.129 Y272.819
X21.283 Y272.526
X21.289
X23.434 Y272.211
X23.44 Y272.21
X25.576 Y271.873
X25.582 Y271.872
X27.708 Y271.51
X27.715 Y271.509
X29.829 Y271.119
X29.836 Y271.117
X31.939 Y270.698
X31.946 Y270.697
X34.036 Y270.246
X34.044 Y270.244
X36.119 Y269.76
X36.128 Y269.758
X38.189 Y269.239
X38.196 Y269.237
X39.22 Y268.963
X39.225 Y268.962
X40.246 Y268.678
X40.25 Y268.676
X41.267 Y268.383
X41.272 Y268.382
X42.284 Y268.078
X42.289 Y268.076
X43.297 Y267.762
X43.302 Y267.761
X44.306 Y267.436
X44.311 Y267.434
X45.31 Y267.098
X45.316 Y267.096
X46.31 Y266.748
X46.315 Y266.746
X47.305 Y266.387
X47.31 Y266.385
X48.294 Y266.015
X48.301 Y266.013
X49.28 Y265.63
X49.286 Y265.627
X50.26 Y265.232
X50.266 Y265.23
X51.235 Y264.823
X51.241 Y264.82
X52.206 Y264.4
X52.211 Y264.398
X53.17 Y263.966
X53.176 Y263.963
X54.13 Y263.519
X54.136 Y263.517
X55.085 Y263.061
X55.09 Y263.058
X56.034 Y262.592
X56.04 Y262.59
X56.98 Y262.112
X56.985 Y262.109
X57.921 Y261.62
X57.925 Y261.618
X58.857 Y261.119
X58.861 Y261.116
X59.788 Y260.607
X59.793 Y260.605
X60.716 Y260.085
X60.72 Y260.082
X61.639 Y259.553
X61.645 Y259.55
X63.471 Y258.463
X63.479 Y258.458
X65.29 Y257.336
X65.297 Y257.332
X67.094 Y256.176
X67.101 Y256.171
X68.885 Y254.983
X68.891 Y254.979
X70.663 Y253.762
X70.669 Y253.758
X72.429 Y252.513
X72.434 Y252.51
X74.184 Y251.241
X74.189 Y251.237
X75.93 Y249.944
X75.934 Y249.941
X77.666 Y248.626
X77.669 Y248.624
X79.393 Y247.291
X79.396 Y247.288
X81.114 Y245.938
X81.116 Y245.936
X82.827 Y244.572
X82.83 Y244.57
X84.535 Y243.192
X84.537 Y243.191
X86.238 Y241.804
X86.241 Y241.802
X89.634 Y239.003
X89.635 Y239.001
X93.021 Y236.185
G2 X93.087 Y236.12 I-0.32 J-0.384
G1 X95.882 Y232.745
X95.884 Y232.743
X98.662 Y229.361
X98.664 Y229.359
X100.042 Y227.664
X100.043 Y227.662
X101.412 Y225.962
X101.413 Y225.96
X102.768 Y224.255
X102.771 Y224.252
X104.111 Y222.541
X104.113 Y222.538
X105.437 Y220.82
X105.44 Y220.817
X106.745 Y219.091
X106.748 Y219.087
X108.033 Y217.353
X108.036 Y217.348
X109.297 Y215.604
X109.301 Y215.599
X110.538 Y213.845
X110.542 Y213.84
X111.751 Y212.075
X111.754 Y212.069
X112.935 Y210.292
X112.94 Y210.285
X114.089 Y208.495
X114.093 Y208.488
X115.209 Y206.684
X115.214 Y206.677
X116.295 Y204.859
X116.298 Y204.852
X116.824 Y203.937
X116.827 Y203.933
X117.344 Y203.014
X117.346 Y203.01
X117.853 Y202.087
X117.856 Y202.082
X118.353 Y201.154
X118.355 Y201.149
X118.841 Y200.218
X118.844 Y200.214
X119.32 Y199.278
X119.322 Y199.273
X119.787 Y198.332
X119.79 Y198.326
X120.243 Y197.381
X120.245 Y197.376
X120.687 Y196.427
X120.69 Y196.422
X121.121 Y195.467
X121.123 Y195.461
X121.542 Y194.501
X121.545 Y194.495
X121.951 Y193.531
X121.953 Y193.525
X122.347 Y192.555
X122.35 Y192.549
X122.732 Y191.574
X122.734 Y191.568
X123.103 Y190.588
X123.105 Y190.583
X123.463 Y189.599
X123.465 Y189.594
X123.812 Y188.605
X123.814 Y188.599
X124.149 Y187.605
X124.15 Y187.6
X124.475 Y186.601
X124.477 Y186.595
X124.791 Y185.592
X124.793 Y185.587
X125.096 Y184.58
X125.097 Y184.575
X125.39 Y183.564
X125.392 Y183.56
X125.676 Y182.544
X125.677 Y182.538
X125.95 Y181.519
X125.952 Y181.513
X126.472 Y179.462
X126.474 Y179.453
X126.958 Y177.388
X126.96 Y177.38
X127.411 Y175.301
X127.412 Y175.293
X127.832 Y173.202
X127.834 Y173.195
X128.224 Y171.091
X128.225 Y171.085
X128.589 Y168.97
X128.59 Y168.964
X128.928 Y166.839
X128.929 Y166.833
X129.245 Y164.698
Y164.693
X129.539 Y162.55
X129.54 Y162.546
X129.816 Y160.394
Y160.39
X130.076 Y158.232
X130.077 Y158.228
X130.321 Y156.064
Y156.061
X130.554 Y153.892
Y153.89
X130.776 Y151.717
X130.777 Y151.714
X131.197 Y147.357
Y147.355
X131.602 Y142.992
G2 X131.604 Y142.946 I-0.498 J-0.046
G1 Y-142.946
G2 X131.602 Y-142.992 I-0.5 J0.
G1 X131.201 Y-147.368
Y-147.37
X130.784 Y-151.738
X130.783 Y-151.74
X130.562 Y-153.92
Y-153.923
X130.332 Y-156.098
Y-156.101
X130.089 Y-158.271
X130.088 Y-158.274
X129.83 Y-160.439
Y-160.443
X129.555 Y-162.6
X129.554 Y-162.605
X129.261 Y-164.754
Y-164.759
X128.946 Y-166.9
X128.945 Y-166.905
X128.608 Y-169.036
X128.607 Y-169.042
X128.245 Y-171.162
X128.244 Y-171.169
X127.854 Y-173.279
X127.852 Y-173.286
X127.433 Y-175.383
X127.432 Y-175.391
X126.981 Y-177.475
X126.979 Y-177.483
X126.496 Y-179.554
X126.494 Y-179.563
X125.974 Y-181.618
X125.972 Y-181.624
X125.699 Y-182.646
X125.698 Y-182.651
X125.414 Y-183.67
X125.412 Y-183.675
X125.119 Y-184.688
X125.118 Y-184.693
X124.814 Y-185.703
X124.812 Y-185.708
X124.498 Y-186.714
X124.497 Y-186.719
X124.173 Y-187.719
X124.171 Y-187.725
X123.835 Y-188.722
X123.833 Y-188.727
X123.486 Y-189.718
X123.484 Y-189.723
X123.126 Y-190.71
X123.124 Y-190.717
X122.753 Y-191.699
X122.751 Y-191.704
X122.369 Y-192.682
X122.366 Y-192.688
X121.971 Y-193.66
X121.969 Y-193.666
X121.562 Y-194.632
X121.559 Y-194.638
X121.14 Y-195.6
X121.138 Y-195.605
X120.707 Y-196.562
X120.704 Y-196.568
X120.26 Y-197.52
X120.258 Y-197.525
X119.804 Y-198.472
X119.801 Y-198.478
X119.334 Y-199.42
X119.332 Y-199.425
X118.855 Y-200.363
X118.852 Y-200.367
X118.365 Y-201.3
X118.362 Y-201.306
X117.863 Y-202.235
X117.861 Y-202.239
X117.353 Y-203.164
X117.35 Y-203.169
X116.831 Y-204.089
X116.829 Y-204.092
X116.301 Y-205.009
X116.298 Y-205.016
X115.213 Y-206.838
X115.208 Y-206.846
X114.088 Y-208.652
X114.083 Y-208.659
X112.929 Y-210.452
X112.925 Y-210.458
X111.739 Y-212.238
X111.735 Y-212.244
X110.521 Y-214.012
X110.517 Y-214.018
X109.274 Y-215.774
X109.271 Y-215.779
X108.004 Y-217.525
X108. Y-217.529
X106.71 Y-219.265
X106.707 Y-219.269
X105.395 Y-220.997
X105.393 Y-221.001
X104.063 Y-222.721
X104.06 Y-222.724
X102.713 Y-224.436
X102.711 Y-224.439
X101.349 Y-226.146
X101.347 Y-226.148
X99.973 Y-227.85
X99.971 Y-227.852
X98.586 Y-229.549
X98.585 Y-229.551
X95.792 Y-232.936
X95.79 Y-232.938
X92.981 Y-236.315
G2 X92.915 Y-236.38 I-0.384 J0.32
G1 X89.528 Y-239.18
X89.526 Y-239.182
X86.132 Y-241.965
X86.13 Y-241.966
X84.428 Y-243.345
X84.426 Y-243.347
X82.72 Y-244.717
X82.718 Y-244.719
X81.006 Y-246.076
X81.003 Y-246.078
X79.286 Y-247.42
X79.283 Y-247.422
X77.559 Y-248.747
X77.555 Y-248.75
X75.823 Y-250.057
X75.819 Y-250.06
X74.078 Y-251.346
X74.074 Y-251.35
X72.324 Y-252.612
X72.319 Y-252.615
X70.558 Y-253.853
X70.553 Y-253.857
X68.781 Y-255.067
X68.775 Y-255.071
X66.991 Y-256.253
X66.985 Y-256.257
X65.188 Y-257.406
X65.181 Y-257.411
X63.371 Y-258.528
X63.363 Y-258.532
X61.538 Y-259.612
X61.532 Y-259.616
X60.614 Y-260.143
X60.609 Y-260.145
X59.687 Y-260.661
X59.682 Y-260.664
X58.756 Y-261.171
X58.752 Y-261.173
X57.821 Y-261.67
X57.816 Y-261.673
X56.881 Y-262.159
X56.876 Y-262.161
X55.937 Y-262.636
X55.932 Y-262.639
X54.988 Y-263.104
X54.983 Y-263.106
X54.034 Y-263.559
X54.029 Y-263.562
X53.076 Y-264.004
X53.07 Y-264.006
X52.112 Y-264.436
X52.106 Y-264.439
X51.143 Y-264.856
X51.138 Y-264.858
X50.17 Y-265.264
X50.163 Y-265.267
X49.19 Y-265.66
X49.184 Y-265.662
X48.206 Y-266.043
X48.2 Y-266.045
X47.217 Y-266.414
X47.211 Y-266.416
X46.223 Y-266.773
X46.218 Y-266.775
X45.225 Y-267.121
X45.219 Y-267.123
X44.222 Y-267.457
X44.217 Y-267.459
X43.215 Y-267.783
X43.21 Y-267.784
X42.203 Y-268.097
X42.198 Y-268.099
X41.187 Y-268.401
X41.183 Y-268.402
X40.168 Y-268.695
X40.163 Y-268.697
X39.144 Y-268.979
X39.139 Y-268.98
X38.117 Y-269.253
X38.11 Y-269.255
X36.052 Y-269.772
X36.044 Y-269.774
X33.972 Y-270.257
X33.964 Y-270.259
X31.878 Y-270.707
X31.871 Y-270.708
X29.772 Y-271.126
X29.765 Y-271.128
X27.654 Y-271.516
X27.648 Y-271.517
X25.526 Y-271.879
X25.52 Y-271.88
X23.388 Y-272.216
X23.383 Y-272.217
X21.241 Y-272.53
X21.236
X19.086 Y-272.822
X19.082 Y-272.823
X16.924 Y-273.097
X16.92 Y-273.098
X14.755 Y-273.355
X14.752
X12.581 Y-273.598
X12.578
X10.402 Y-273.827
X10.4
X8.22 Y-274.047
X8.217 Y-274.048
X3.847 Y-274.464
X3.845
X-0.531 Y-274.863
G2 X-0.622 I-0.045 J0.498
G1 X-4.978 Y-274.464
X-4.98
X-9.329 Y-274.047
X-9.332 Y-274.046
X-11.501 Y-273.827
X-11.504
X-13.669 Y-273.597
X-13.672
X-15.832 Y-273.354
X-15.836 Y-273.353
X-17.99 Y-273.096
X-17.994
X-20.141 Y-272.822
X-20.145 Y-272.821
X-22.284 Y-272.528
X-22.29
X-24.42 Y-272.214
X-24.426 Y-272.213
X-26.546 Y-271.876
X-26.552 Y-271.875
X-28.663 Y-271.513
X-28.669 Y-271.512
X-30.769 Y-271.123
X-30.776 Y-271.121
X-32.862 Y-270.703
X-32.87 Y-270.702
X-34.944 Y-270.252
X-34.952 Y-270.25
X-37.012 Y-269.767
X-37.021 Y-269.765
X-39.066 Y-269.246
X-39.073 Y-269.244
X-40.09 Y-268.97
X-40.094 Y-268.969
X-41.107 Y-268.686
X-41.112 Y-268.684
X-42.12 Y-268.391
X-42.125 Y-268.39
X-43.13 Y-268.087
X-43.135 Y-268.085
X-44.135 Y-267.771
X-44.14 Y-267.769
X-45.135 Y-267.445
X-45.141 Y-267.444
X-46.132 Y-267.109
X-46.137 Y-267.107
X-47.124 Y-266.76
X-47.129 Y-266.758
X-48.11 Y-266.4
X-48.116 Y-266.398
X-49.093 Y-266.028
X-49.099 Y-266.025
X-50.07 Y-265.643
X-50.076 Y-265.641
X-51.042 Y-265.247
X-51.048 Y-265.244
X-52.01 Y-264.837
X-52.015 Y-264.835
X-52.971 Y-264.416
X-52.977 Y-264.413
X-53.928 Y-263.982
X-53.934 Y-263.98
X-54.88 Y-263.537
X-54.885 Y-263.534
X-55.826 Y-263.08
X-55.832 Y-263.078
X-56.768 Y-262.612
X-56.773 Y-262.609
X-57.705 Y-262.132
X-57.71 Y-262.129
X-58.638 Y-261.641
X-58.642 Y-261.639
X-59.566 Y-261.141
X-59.57 Y-261.139
X-60.489 Y-260.631
X-60.493 Y-260.628
X-61.408 Y-260.11
X-61.413 Y-260.108
X-62.323 Y-259.58
X-62.329 Y-259.576
X-64.139 Y-258.492
X-64.147 Y-258.487
X-65.942 Y-257.367
X-65.949 Y-257.363
X-67.73 Y-256.209
X-67.736 Y-256.204
X-69.504 Y-255.019
X-69.51 Y-255.015
X-71.265 Y-253.801
X-71.271 Y-253.797
X-73.015 Y-252.555
X-73.019 Y-252.552
X-74.753 Y-251.286
X-74.758 Y-251.282
X-76.481 Y-249.992
X-76.486 Y-249.989
X-78.201 Y-248.678
X-78.204 Y-248.675
X-79.912 Y-247.345
X-79.915 Y-247.343
X-81.615 Y-245.996
X-81.618 Y-245.994
X-83.312 Y-244.633
X-83.314 Y-244.631
X-85.003 Y-243.257
X-85.005 Y-243.255
X-86.69 Y-241.87
X-86.692 Y-241.869
X-90.051 Y-239.077
X-90.053 Y-239.075
X-93.405 Y-236.266
G2 X-93.471 Y-236.2 I0.321 J0.383
G1 X-96.245 Y-232.815
X-96.246 Y-232.813
X-99.005 Y-229.423
X-99.006 Y-229.42
X-100.374 Y-227.719
X-100.375 Y-227.718
X-101.733 Y-226.014
X-101.735 Y-226.011
X-103.079 Y-224.301
X-103.081 Y-224.298
X-104.412 Y-222.582
X-104.415 Y-222.579
X-105.728 Y-220.856
X-105.73 Y-220.853
X-107.025 Y-219.123
X-107.028 Y-219.119
X-108.303 Y-217.38
X-108.307 Y-217.375
X-109.558 Y-215.627
X-109.561 Y-215.622
X-110.788 Y-213.864
X-110.792 Y-213.859
X-111.991 Y-212.09
X-111.995 Y-212.084
X-113.166 Y-210.303
X-113.17 Y-210.296
X-114.309 Y-208.502
X-114.313 Y-208.495
X-115.42 Y-206.687
X-115.425 Y-206.679
X-116.496 Y-204.857
X-116.5 Y-204.851
X-117.021 Y-203.935
X-117.023 Y-203.931
X-117.535 Y-203.01
X-117.537 Y-203.005
X-118.039 Y-202.08
X-118.042 Y-202.077
X-118.535 Y-201.149
X-118.537 Y-201.143
X-119.018 Y-200.21
X-119.021 Y-200.205
X-119.492 Y-199.267
X-119.494 Y-199.262
X-119.954 Y-198.32
X-119.957 Y-198.316
X-120.407 Y-197.37
X-120.409 Y-197.364
X-120.846 Y-196.413
X-120.849 Y-196.408
X-121.275 Y-195.452
X-121.277 Y-195.446
X-121.691 Y-194.485
X-121.694 Y-194.479
X-122.096 Y-193.514
X-122.098 Y-193.508
X-122.487 Y-192.537
X-122.489 Y-192.532
X-122.867 Y-191.556
X-122.87 Y-191.55
X-123.235 Y-190.57
X-123.237 Y-190.564
X-123.591 Y-189.578
X-123.592 Y-189.573
X-123.935 Y-188.583
X-123.937 Y-188.577
X-124.268 Y-187.583
X-124.27 Y-187.578
X-124.591 Y-186.579
X-124.593 Y-186.574
X-124.903 Y-185.57
X-124.904 Y-185.564
X-125.203 Y-184.557
X-125.205 Y-184.553
X-125.495 Y-183.541
X-125.496 Y-183.535
X-125.775 Y-182.519
X-125.776 Y-182.516
X-126.047 Y-181.497
X-126.049 Y-181.489
X-126.561 Y-179.438
X-126.563 Y-179.43
X-127.041 Y-177.365
X-127.043 Y-177.356
X-127.487 Y-175.277
X-127.488 Y-175.27
X-127.902 Y-173.179
X-127.904 Y-173.172
X-128.289 Y-171.069
X-128.29 Y-171.062
X-128.647 Y-168.948
X-128.648 Y-168.942
X-128.981 Y-166.818
X-128.982 Y-166.813
X-129.292 Y-164.679
Y-164.674
X-129.582 Y-162.532
X-129.583 Y-162.528
X-129.854 Y-160.379
X-129.855 Y-160.374
X-130.109 Y-158.217
Y-158.214
X-130.349 Y-156.052
Y-156.049
X-130.577 Y-153.881
X-130.578 Y-153.879
X-130.795 Y-151.708
Y-151.705
X-131.206 Y-147.352
Y-147.35
X-131.602 Y-142.991
G2 X-131.604 Y-142.946 I0.498 J0.045
G1 Y-56.233
G3 X-131.704 Y-56.133 I-0.1 J0.
G1 X-131.804
X-131.842 Z-0.992
X-131.875 Z-0.971
X-131.896 Z-0.938
X-131.904 Z-0.9
G0 Z15.
M5
G53 Z0.
M30
