(Letter_M)
(T1  D=1. CR=0.5 - ZMIN=-1. - ball end mill)
G90
G0 G53 Z0.

(2D Contour21)
T1 M6 (ball end mill D=1. drag knife)
S47747 M3
G64
G54
G43 H1
G0 X-190.058 Y-82.174
Z15.
Z5.
G1 Z1. F9549.3
Z-0.9
X-190.05 Z-0.938
X-190.029 Z-0.971
X-189.996 Z-0.992
X-189.958 Z-1.
X-189.858
G3 X-189.758 Y-82.074 I0. J0.1
G1 Y267.773
G2 X-189.258 Y268.273 I0.5 J0.
G1 X-65.117
G2 X-64.625 Y267.863 I0. J-0.5
G1 X3.423 Y-105.028
X68.818 Y267.859
G2 X69.31 Y268.273 I0.492 J-0.086
G1 X189.258
G2 X189.758 Y267.773 I0. J-0.5
G1 Y-267.773
G2 X189.258 Y-268.273 I-0.5 J0.
G1 X98.145
G2 X97.645 Y-267.773 I0. J0.5
G1 Y55.575
X41.124 Y-267.859
G2 X40.631 Y-268.273 I-0.493 J0.086
G1 X-32.597
G2 X-33.088 Y-267.871 I0. J0.5
G1 X-97.938 Y55.444
Y-267.773
G2 X-98.438 Y-268.273 I-0.5 J0.
G1 X-189.258
G2 X-189.758 Y-267.773 I0. J0.5
G1 Y-82.074
G3 X-189.858 Y-81.974 I-0.1 J0.
G1 X-189.958
X-189.996 Z-0.992
X-190.029 Z-0.971
X-190.05 Z-0.938
X-190.058 Z-0.9
G0 Z15.
M5
G53 Z0.
M30
