(Letter_L)
(T1  D=1. CR=0.5 - ZMIN=-1. - ball end mill)
G90
G0 G53 Z0.

(2D Contour21)
T1 M6 (ball end mill D=1. drag knife)
S47747 M3
G64
G54
G43 H1
G0 X-114.431 Y-118.735
Z15.
Z5.
G1 Z1. F9549.3
Z-0.9
X-114.423 Z-0.938
X-114.402 Z-0.971
X-114.369 Z-0.992
X-114.331 Z-1.
X-114.231
G3 X-114.131 Y-118.635 I0. J0.1
G1 Y267.773
G2 X-113.631 Y268.273 I0.5 J0.
G1 X-22.81
G2 X-22.31 Y267.773 I0. J-0.5
G1 Y-177.039
X113.631
G2 X114.131 Y-177.539 I0. J-0.5
G1 Y-267.773
G2 X113.631 Y-268.273 I-0.5 J0.
G1 X-113.631
G2 X-114.131 Y-267.773 I0. J0.5
G1 Y-118.635
G3 X-114.231 Y-118.535 I-0.1 J0.
G1 X-114.331
X-114.369 Z-0.992
X-114.402 Z-0.971
X-114.423 Z-0.938
X-114.431 Z-0.9
G0 Z15.
M5
G53 Z0.
M30
