(Letter_H)
(T1  D=1. CR=0.5 - ZMIN=-1. - ball end mill)
G90
G0 G53 Z0.

(2D Contour21)
T1 M6 (ball end mill D=1. drag knife)
S47747 M3
G64
G54
G43 H1
G0 X-133.222 Y-89.
Z15.
Z5.
G1 Z1. F9549.3
Z-0.9
X-133.214 Z-0.938
X-133.193 Z-0.971
X-133.16 Z-0.992
X-133.122 Z-1.
X-133.022
G3 X-132.922 Y-88.9 I0. J0.1
G1 Y267.773
G2 X-132.422 Y268.273 I0.5 J0.
G1 X-41.309
G2 X-40.809 Y267.773 I0. J-0.5
G1 Y45.91
X40.809
Y267.773
G2 X41.309 Y268.273 I0.5 J0.
G1 X132.422
G2 X132.922 Y267.773 I0. J-0.5
G1 Y-267.773
G2 X132.422 Y-268.273 I-0.5 J0.
G1 X41.309
G2 X40.809 Y-267.773 I0. J0.5
G1 Y-46.496
X-40.809
Y-267.773
G2 X-41.309 Y-268.273 I-0.5 J0.
G1 X-132.422
G2 X-132.922 Y-267.773 I0. J0.5
G1 Y-88.9
G3 X-133.022 Y-88.8 I-0.1 J0.
G1 X-133.122
X-133.16 Z-0.992
X-133.193 Z-0.971
X-133.214 Z-0.938
X-133.222 Z-0.9
G0 Z15.
M5
G53 Z0.
M30
