(Letter_T)
(T1  D=1. CR=0.5 - ZMIN=-1. - ball end mill)
G90
G0 G53 Z0.

(2D Contour21)
T1 M6 (ball end mill D=1. drag knife)
S47747 M3
G64
G54
G43 H1
G0 X-46.212 Y-109.929
Z15.
Z5.
G1 Z1. F9549.3
Z-0.9
X-46.205 Z-0.938
X-46.183 Z-0.971
X-46.151 Z-0.992
X-46.112 Z-1.
X-46.012
G3 X-45.912 Y-109.829 I0. J0.1
G1 Y176.453
X-129.288
G2 X-129.788 Y176.953 I0. J0.5
G1 Y267.773
G2 X-129.288 Y268.273 I0.5 J0.
G1 X129.288
G2 X129.788 Y267.773 I0. J-0.5
G1 Y176.953
G2 X129.288 Y176.453 I-0.5 J0.
G1 X46.201
Y-267.773
G2 X45.701 Y-268.273 I-0.5 J0.
G1 X-45.412
G2 X-45.912 Y-267.773 I0. J0.5
G1 Y-109.829
G3 X-46.012 Y-109.729 I-0.1 J0.
G1 X-46.112
X-46.151 Z-0.992
X-46.183 Z-0.971
X-46.205 Z-0.938
X-46.212 Z-0.9
G0 Z15.
M5
G53 Z0.
M30
