(Letter_W)
(T1  D=1. CR=0.5 - ZMIN=-1. - ball end mill)
G90
G0 G53 Z0.

(2D Contour21)
T1 M6 (ball end mill D=1. drag knife)
S47747 M3
G64
G54
G43 H1
G0 X-157.023 Y-55.977
Z15.
Z5.
G1 Z1. F9549.3
Z-0.9
X-157.015 Y-55.976 Z-0.938
X-156.994 Y-55.972 Z-0.971
X-156.962 Y-55.967 Z-0.992
X-156.924 Y-55.961 Z-1.
X-156.825 Y-55.945
G3 X-156.76 Y-55.904 I-0.016 J0.099
X-156.743 Y-55.83 I-0.081 J0.058
G1 X-210.158 Y267.692
G2 X-209.746 Y268.266 I0.493 J0.081
X-209.665 Y268.273 I0.081 J-0.493
G1 X-115.764
G2 X-115.268 Y267.836 I0. J-0.5
G1 X-79.892 Y-8.699
X-47.463 Y267.831
G2 X-46.967 Y268.273 I0.497 J-0.058
G1 X46.243
G2 X46.739 Y267.837 I0. J-0.5
G1 X82.164 Y-8.734
X115.135 Y267.832
G2 X115.631 Y268.273 I0.496 J-0.059
G1 X209.665
G2 X210.045 Y268.098 I0. J-0.5
X210.159 Y267.697 I-0.38 J-0.325
G1 X127.423 Y-267.849
G2 X126.929 Y-268.273 I-0.494 J0.076
G1 X40.723
G2 X40.227 Y-267.841 I0. J0.5
G1 X1.58 Y14.186
X-34.825 Y-267.837
G2 X-35.321 Y-268.273 I-0.496 J0.064
G1 X-121.243
G2 X-121.736 Y-267.854 I0. J0.5
G1 X-156.743 Y-55.83
G3 X-156.783 Y-55.765 I-0.099 J-0.016
X-156.858 Y-55.747 I-0.058 J-0.081
G1 X-156.957 Y-55.764
X-156.994 Y-55.77 Z-0.992
X-157.026 Y-55.775 Z-0.971
X-157.048 Y-55.779 Z-0.938
X-157.055 Y-55.78 Z-0.9
G0 Z15.
M5
G53 Z0.
M30
