(Letter_Y)
(T1  D=1. CR=0.5 - ZMIN=-1. - ball end mill)
G90
G0 G53 Z0.

(2D Contour21)
T1 M6 (ball end mill D=1. drag knife)
S47747 M3
G64
G54
G43 H1
G0 X-46.496 Y-139.486
Z15.
Z5.
G1 Z1. F9549.3
Z-0.9
X-46.489 Z-0.938
X-46.467 Z-0.971
X-46.435 Z-0.992
X-46.396 Z-1.
X-46.296
G3 X-46.196 Y-139.386 I0. J0.1
G1 Y-43.717
X-151.876 Y267.612
G2 X-151.564 Y268.246 I0.473 J0.161
X-151.403 Y268.273 I0.161 J-0.473
G1 X-54.215
G2 X-53.735 Y267.911 I0. J-0.5
G1 X-0.069 Y81.48
X53.071 Y267.91
G2 X53.551 Y268.273 I0.481 J-0.137
G1 X151.403
G2 X151.903 Y267.773 I0. J-0.5
X151.876 Y267.611 I-0.5 J0.
G1 X45.624 Y-43.507
Y-267.773
G2 X45.124 Y-268.273 I-0.5 J0.
G1 X-45.696
G2 X-46.196 Y-267.773 I0. J0.5
G1 Y-139.386
G3 X-46.296 Y-139.286 I-0.1 J0.
G1 X-46.396
X-46.435 Z-0.992
X-46.467 Z-0.971
X-46.489 Z-0.938
X-46.496 Z-0.9
G0 Z15.
M5
G53 Z0.
M30
