(Number_1)
(T1  D=1. CR=0.5 - ZMIN=-1. - ball end mill)
G90
G0 G53 Z0.

(2D Contour21)
T1 M6 (ball end mill D=1. drag knife)
S47747 M3
G64
G54
G43 H1
G0 X-133.8 Y-217.694
Z15.
Z5.
G1 Z1. F9549.3
Z-0.9
X-133.792 Z-0.938
X-133.771 Z-0.971
X-133.738 Z-0.992
X-133.7 Z-1.
X-133.6
G3 X-133.5 Y-217.594 I0. J0.1
G1 Y-174.702
G2 X-133. Y-174.202 I0.5 J0.
G1 X-46.35
Y134.939
X-112.354
G2 X-112.854 Y135.439 I0. J0.5
G1 Y201.627
G2 X-112.437 Y202.12 I0.5 J0.
G1 X-109.927 Y202.543
X-107.42 Y202.973
X-104.919 Y203.415
X-102.426 Y203.874
X-99.944 Y204.359
X-97.474 Y204.875
X-96.246 Y205.146
X-95.021 Y205.426
X-93.801 Y205.718
X-92.585 Y206.022
X-91.374 Y206.336
X-90.168 Y206.665
X-88.968 Y207.007
X-87.774 Y207.364
X-86.585 Y207.736
X-85.403 Y208.124
X-84.228 Y208.529
X-83.06 Y208.951
X-81.899 Y209.392
X-80.744 Y209.851
X-79.596 Y210.327
X-78.454 Y210.822
X-77.317 Y211.331
X-76.186 Y211.855
X-75.059 Y212.395
X-73.938 Y212.947
X-72.82 Y213.514
X-71.707 Y214.092
X-70.598 Y214.681
X-69.493 Y215.28
X-67.291 Y216.508
X-65.1 Y217.768
X-62.917 Y219.055
X-60.741 Y220.361
X-58.568 Y221.681
X-56.425 Y222.99
X-54.529 Y224.535
X-52.612 Y226.105
X-50.708 Y227.684
X-48.821 Y229.274
X-46.956 Y230.88
X-45.119 Y232.51
X-44.214 Y233.333
X-43.317 Y234.162
X-42.429 Y235.
X-41.552 Y235.846
X-40.686 Y236.7
X-39.832 Y237.563
X-38.99 Y238.436
X-38.161 Y239.319
X-37.345 Y240.212
X-36.544 Y241.118
X-35.758 Y242.033
X-34.988 Y242.962
X-34.233 Y243.904
X-33.494 Y244.859
X-32.769 Y245.826
X-32.057 Y246.804
X-31.359 Y247.794
X-30.673 Y248.794
X-29.999 Y249.805
X-29.337 Y250.825
X-28.684 Y251.854
X-28.042 Y252.892
X-27.408 Y253.937
X-26.784 Y254.99
X-25.556 Y257.117
X-24.355 Y259.266
X-23.175 Y261.433
X-22.01 Y263.615
X-20.856 Y265.807
X-19.706 Y268.005
G2 X-19.263 Y268.273 I0.443 J-0.232
G1 X45.85
G2 X46.35 Y267.773 I0. J-0.5
G1 Y-174.202
X133.
G2 X133.5 Y-174.702 I0. J-0.5
G1 Y-264.702
G2 X133. Y-265.202 I-0.5 J0.
G1 X-133.
G2 X-133.5 Y-264.702 I0. J0.5
G1 Y-217.594
G3 X-133.6 Y-217.494 I-0.1 J0.
G1 X-133.7
X-133.738 Z-0.992
X-133.771 Z-0.971
X-133.792 Z-0.938
X-133.8 Z-0.9
G0 Z15.
M5
G53 Z0.
M30
