(Number_2)
(T1  D=1. CR=0.5 - ZMIN=-1. - ball end mill)
G90
G0 G53 Z0.

(2D Contour21)
T1 M6 (ball end mill D=1. drag knife)
S47747 M3
G64
G54
G43 H1
G0 X-135.566 Y-227.479
Z15.
Z5.
G1 Z1. F9549.3
Z-0.9
X-135.558 Z-0.938
X-135.537 Z-0.971
X-135.504 Z-0.992
X-135.466 Z-1.
X-135.366
G3 X-135.266 Y-227.379 I0. J0.1
G1 Y-192.892
G2 X-135.227 Y-192.697 I0.5 J0.
G1 X-134.643 Y-191.316
X-134.642 Y-191.315
X-134.055 Y-189.935
X-134.054 Y-189.933
X-133.461 Y-188.556
X-133.46 Y-188.553
X-132.857 Y-187.182
X-132.855 Y-187.177
X-132.239 Y-185.813
X-132.236 Y-185.807
X-131.603 Y-184.452
X-131.6 Y-184.445
X-130.948 Y-183.1
X-130.944 Y-183.092
X-130.269 Y-181.76
X-130.265 Y-181.753
X-129.568 Y-180.432
X-129.564 Y-180.424
X-128.844 Y-179.115
X-128.841 Y-179.109
X-128.102 Y-177.811
X-128.098 Y-177.804
X-127.34 Y-176.516
X-127.337 Y-176.511
X-126.562 Y-175.233
X-126.559 Y-175.228
X-125.769 Y-173.957
X-125.766 Y-173.952
X-124.961 Y-172.69
X-124.958 Y-172.686
X-124.14 Y-171.43
X-124.137 Y-171.426
X-123.307 Y-170.177
X-123.306 Y-170.175
X-122.467 Y-168.93
X-122.465 Y-168.927
X-121.617 Y-167.688
X-121.615 Y-167.686
X-120.76 Y-166.45
X-120.759 Y-166.448
X-119.898 Y-165.216
X-119.897 Y-165.214
X-119.032 Y-163.984
X-119.031
X-118.163 Y-162.755
X-117.3 Y-161.536
X-115.802 Y-159.194
X-115.049 Y-158.017
X-114.296 Y-156.843
X-113.541 Y-155.668
X-112.784 Y-154.494
X-112.027 Y-153.321
X-111.268 Y-152.149
X-111.267 Y-152.148
X-110.505 Y-150.978
X-109.742 Y-149.81
X-109.741 Y-149.808
X-108.974 Y-148.642
X-108.204 Y-147.477
Y-147.475
X-107.432 Y-146.312
X-106.657 Y-145.151
X-106.656 Y-145.15
X-105.879 Y-143.99
X-105.1 Y-142.831
X-104.32 Y-141.674
X-103.537 Y-140.516
X-102.754 Y-139.36
X-101.968 Y-138.206
X-101.183 Y-137.052
X-100.397 Y-135.897
X-99.61 Y-134.744
X-98.823 Y-133.591
X-78.727 Y-104.171
G2 X-78.712 Y-104.15 I0.413 J-0.282
G1 X-76.243 Y-100.905
X-73.775 Y-97.661
X-71.311 Y-94.414
X-68.852 Y-91.163
X-66.399 Y-87.908
X-63.955 Y-84.648
X-61.521 Y-81.38
X-59.098 Y-78.105
X-56.688 Y-74.82
X-54.292 Y-71.526
X-51.911 Y-68.22
X-49.544 Y-64.905
X-47.189 Y-61.581
X-44.845 Y-58.248
X-42.511 Y-54.908
X-40.187 Y-51.561
X-37.871 Y-48.208
X-35.562 Y-44.849
X-33.259 Y-41.486
X-30.961 Y-38.119
X-28.668 Y-34.748
X-26.377 Y-31.376
X-24.088 Y-28.001
X-21.801 Y-24.626
X-21.797 Y-24.622
X-19.277 Y-20.99
X-16.761 Y-17.356
X-14.252 Y-13.718
X-11.754 Y-10.074
X-9.272 Y-6.422
X-6.808 Y-2.759
X-4.367 Y0.916
X-1.952 Y4.606
X0.434 Y8.314
X1.613 Y10.174
X2.785 Y12.039
X3.947 Y13.91
X5.099 Y15.786
X6.241 Y17.668
X7.373 Y19.556
X8.493 Y21.451
X9.602 Y23.352
X10.698 Y25.26
X11.784 Y27.175
X12.858 Y29.097
X13.922 Y31.025
X14.977 Y32.958
X16.022 Y34.897
X18.087 Y38.792
X20.121 Y42.704
X22.129 Y46.632
X24.116 Y50.574
X26.085 Y54.526
X28.041 Y58.486
X29.989 Y62.452
X31.923 Y66.401
X32.938 Y69.088
X33.956 Y71.798
X34.961 Y74.51
X35.948 Y77.224
X36.91 Y79.943
X37.843 Y82.666
X38.739 Y85.398
X39.172 Y86.765
X39.593 Y88.135
X40.003 Y89.507
X40.399 Y90.882
X40.783 Y92.259
X41.152 Y93.639
X41.506 Y95.021
X41.844 Y96.407
X42.166 Y97.796
X42.471 Y99.188
X42.758 Y100.585
X43.028 Y101.985
X43.281 Y103.388
X43.518 Y104.795
X43.739 Y106.206
X43.947 Y107.62
X44.141 Y109.036
X44.322 Y110.457
X44.491 Y111.88
X44.648 Y113.306
X44.795 Y114.733
X44.932 Y116.163
X45.179 Y119.032
X45.397 Y121.907
X45.589 Y124.788
X45.764 Y127.674
X45.926 Y130.564
X46.081 Y133.432
X46.019 Y134.955
X45.952 Y136.499
X45.875 Y138.037
X45.784 Y139.57
X45.675 Y141.097
X45.544 Y142.615
X45.385 Y144.123
X45.194 Y145.622
X45.085 Y146.364
X44.967 Y147.105
X44.838 Y147.841
X44.699 Y148.575
X44.549 Y149.305
X44.386 Y150.03
X44.211 Y150.752
X44.023 Y151.469
X43.822 Y152.181
X43.606 Y152.89
X43.376 Y153.593
X43.132 Y154.294
X42.875 Y154.99
X42.604 Y155.683
X42.322 Y156.374
X42.028 Y157.062
X41.723 Y157.746
X41.409 Y158.427
X40.75 Y159.786
X40.06 Y161.136
X39.341 Y162.479
X38.601 Y163.818
X37.843 Y165.154
X37.074 Y166.488
X36.332 Y167.764
X35.143 Y168.941
X33.905 Y170.156
X32.662 Y171.356
X31.41 Y172.535
X30.148 Y173.687
X28.869 Y174.804
X28.226 Y175.346
X27.576 Y175.878
X26.922 Y176.398
X26.261 Y176.905
X25.595 Y177.398
X24.923 Y177.877
X24.244 Y178.34
X23.558 Y178.788
X22.864 Y179.219
X22.163 Y179.632
X21.453 Y180.027
X20.735 Y180.403
X20.008 Y180.758
X19.271 Y181.093
X18.524 Y181.409
X17.767 Y181.706
X17.001 Y181.985
X16.226 Y182.248
X15.443 Y182.495
X14.651 Y182.727
X13.852 Y182.943
X13.046 Y183.148
X12.233 Y183.339
X11.413 Y183.52
X10.588 Y183.689
X9.759 Y183.848
X8.081 Y184.142
X6.389 Y184.405
X4.684 Y184.649
X2.97 Y184.878
X1.319 Y185.091
X-0.897 Y184.761
X-3.171 Y184.408
X-5.426 Y184.033
X-6.541 Y183.832
X-7.65 Y183.621
X-8.75 Y183.399
X-9.839 Y183.163
X-10.917 Y182.912
X-11.983 Y182.644
X-13.035 Y182.36
X-14.073 Y182.055
X-15.095 Y181.73
X-16.101 Y181.383
X-17.089 Y181.012
X-18.058 Y180.617
X-19.008 Y180.194
X-19.937 Y179.745
X-20.844 Y179.265
X-21.731 Y178.755
X-22.163 Y178.488
X-22.591 Y178.213
X-23.012 Y177.929
X-23.428 Y177.637
X-23.838 Y177.337
X-24.24 Y177.028
X-25.036 Y176.383
X-25.808 Y175.709
X-26.56 Y175.004
X-27.294 Y174.27
X-28.01 Y173.508
X-28.708 Y172.72
X-29.391 Y171.907
X-30.059 Y171.071
X-30.713 Y170.211
X-31.353 Y169.333
X-31.981 Y168.433
X-32.598 Y167.517
X-33.205 Y166.583
X-33.802 Y165.636
X-34.39 Y164.674
X-34.971 Y163.701
X-35.546 Y162.717
X-36.68 Y160.721
X-37.798 Y158.702
X-38.879 Y156.726
X-39.194 Y155.414
X-39.523 Y154.036
X-39.848 Y152.658
X-40.168 Y151.281
X-40.479 Y149.904
X-40.78 Y148.525
X-41.07 Y147.146
X-41.346 Y145.766
X-41.607 Y144.383
X-41.85 Y143.
X-42.074 Y141.615
X-42.276 Y140.227
X-42.456 Y138.837
X-42.615 Y137.442
X-42.754 Y136.045
X-42.875 Y134.644
X-42.981 Y133.241
X-43.073 Y131.835
X-43.153 Y130.426
X-43.223 Y129.016
X-43.286 Y127.603
X-43.342 Y126.19
X-43.395 Y124.775
X-43.445 Y123.367
Y97.408
G2 X-43.945 Y96.908 I-0.5 J0.
G1 X-133.594
G2 X-134.094 Y97.408 I0. J0.5
G1 Y117.055
G2 Y117.075 I0.5 J0.
G1 X-133.879 Y122.361
Y122.363
X-133.646 Y127.642
X-133.645 Y127.645
X-133.514 Y130.279
Y130.281
X-133.372 Y132.911
Y132.914
X-133.216 Y135.538
Y135.541
X-133.043 Y138.159
Y138.163
X-132.851 Y140.774
X-132.85 Y140.778
X-132.636 Y143.381
Y143.386
X-132.398 Y145.98
X-132.397 Y145.985
X-132.132 Y148.568
Y148.574
X-131.839 Y151.147
X-131.838 Y151.153
X-131.514 Y153.714
X-131.513 Y153.72
X-131.156 Y156.269
X-131.155 Y156.277
X-130.761 Y158.812
X-130.76 Y158.817
X-130.549 Y160.079
X-130.548 Y160.084
X-130.327 Y161.342
Y161.346
X-130.096 Y162.6
X-130.095 Y162.604
X-129.853 Y163.855
X-129.852 Y163.859
X-129.6 Y165.105
X-129.599 Y165.11
X-129.335 Y166.353
X-129.334 Y166.357
X-129.059 Y167.595
X-129.058 Y167.6
X-128.772 Y168.833
X-128.771 Y168.838
X-128.472 Y170.067
X-128.471 Y170.072
X-128.16 Y171.297
X-128.158 Y171.302
X-127.835 Y172.521
X-127.834 Y172.527
X-127.497 Y173.742
X-127.495 Y173.747
X-127.146 Y174.957
X-127.145 Y174.962
X-126.782 Y176.166
X-126.78 Y176.172
X-126.403 Y177.372
X-126.401 Y177.378
X-126.01 Y178.572
X-126.008 Y178.577
X-125.603 Y179.766
X-125.601 Y179.772
X-125.181 Y180.955
X-125.179 Y180.961
X-124.744 Y182.139
X-124.742 Y182.145
X-124.292 Y183.316
X-124.289 Y183.323
X-123.823 Y184.489
X-123.821 Y184.495
X-123.34 Y185.655
X-123.337 Y185.661
X-122.84 Y186.815
X-122.838 Y186.82
X-122.327 Y187.969
X-122.324 Y187.975
X-121.798 Y189.118
X-121.796 Y189.123
X-121.256 Y190.261
X-121.253 Y190.267
X-120.699 Y191.4
X-120.696 Y191.405
X-120.129 Y192.532
X-120.126 Y192.537
X-119.545 Y193.66
X-119.543 Y193.664
X-118.95 Y194.781
X-118.947 Y194.786
X-118.342 Y195.899
X-118.34 Y195.903
X-117.722 Y197.012
X-117.719 Y197.017
X-117.09 Y198.121
X-117.088 Y198.125
X-116.447 Y199.225
X-116.445 Y199.228
X-115.794 Y200.324
X-115.791 Y200.329
X-115.128 Y201.42
X-115.126 Y201.423
X-114.454 Y202.511
X-114.452 Y202.514
X-113.77 Y203.599
X-113.767 Y203.604
X-112.375 Y205.762
X-112.371 Y205.768
X-110.944 Y207.912
X-110.941 Y207.917
X-109.482 Y210.05
X-109.478 Y210.055
X-107.991 Y212.177
X-107.988 Y212.182
X-106.473 Y214.293
X-106.471 Y214.296
X-104.934 Y216.399
X-104.931 Y216.402
X-103.373 Y218.498
X-103.371 Y218.501
X-101.796 Y220.589
X-101.795 Y220.591
X-100.205 Y222.675
X-100.203 Y222.678
X-96.991 Y226.832
X-96.99 Y226.834
X-93.755 Y230.98
G2 X-93.687 Y231.051 I0.394 J-0.308
G1 X-90.202 Y234.053
X-90.201 Y234.054
X-86.708 Y237.037
X-86.706 Y237.039
X-84.954 Y238.518
X-84.952 Y238.52
X-83.196 Y239.988
X-83.193 Y239.99
X-81.431 Y241.443
X-81.428 Y241.445
X-79.659 Y242.883
X-79.655 Y242.886
X-77.878 Y244.304
X-77.874 Y244.307
X-76.088 Y245.705
X-76.084 Y245.708
X-74.288 Y247.083
X-74.283 Y247.087
X-72.477 Y248.436
X-72.472 Y248.439
X-70.654 Y249.761
X-70.648 Y249.766
X-68.817 Y251.057
X-68.81 Y251.061
X-66.966 Y252.32
X-66.959 Y252.325
X-65.1 Y253.549
X-65.094 Y253.552
X-64.158 Y254.15
X-64.155 Y254.153
X-63.215 Y254.742
X-63.211 Y254.744
X-62.267 Y255.323
X-62.263 Y255.326
X-61.315 Y255.894
X-61.311 Y255.896
X-60.359 Y256.455
X-60.354 Y256.458
X-59.397 Y257.005
X-59.393 Y257.008
X-58.431 Y257.545
X-58.426 Y257.547
X-57.46 Y258.072
X-57.455 Y258.075
X-56.484 Y258.589
X-56.478 Y258.592
X-55.502 Y259.093
X-55.497 Y259.095
X-54.516 Y259.585
X-54.51 Y259.588
X-53.523 Y260.065
X-53.518 Y260.068
X-52.526 Y260.533
X-52.52 Y260.536
X-51.522 Y260.987
X-51.516 Y260.989
X-50.513 Y261.427
X-50.507 Y261.43
X-49.498 Y261.854
X-49.492 Y261.856
X-48.478 Y262.267
X-48.472 Y262.27
X-47.452 Y262.668
X-47.446 Y262.67
X-46.42 Y263.055
X-46.415 Y263.057
X-45.384 Y263.43
X-45.378 Y263.432
X-44.342 Y263.792
X-44.336 Y263.794
X-43.295 Y264.142
X-43.29 Y264.144
X-42.244 Y264.481
X-42.239 Y264.483
X-41.188 Y264.808
X-41.183 Y264.809
X-40.127 Y265.123
X-40.121 Y265.125
X-39.061 Y265.427
X-39.057 Y265.428
X-37.992 Y265.721
X-37.987 Y265.722
X-36.918 Y266.004
X-36.914 Y266.006
X-35.84 Y266.278
X-35.836 Y266.279
X-34.758 Y266.541
X-34.752 Y266.542
X-32.585 Y267.038
X-32.577 Y267.04
X-30.395 Y267.5
X-30.388 Y267.502
X-28.192 Y267.929
X-28.184 Y267.93
X-25.975 Y268.325
X-25.968 Y268.326
X-23.747 Y268.692
X-23.741 Y268.693
X-21.509 Y269.033
X-21.503 Y269.034
X-19.26 Y269.349
X-19.255 Y269.35
X-17.002 Y269.642
X-16.998
X-14.737 Y269.915
X-14.733 Y269.916
X-12.464 Y270.171
X-12.461
X-10.186 Y270.409
X-10.183 Y270.41
X-7.902 Y270.636
X-7.899
X-5.614 Y270.85
X-5.611
X-1.03 Y271.254
X-1.028
X3.561 Y271.641
G2 X3.653 Y271.64 I0.042 J-0.498
G1 X8.062 Y271.196
X8.064
X12.466 Y270.735
X12.469
X14.665 Y270.492
X14.668
X16.859 Y270.238
X16.862 Y270.237
X19.047 Y269.971
X19.051
X21.229 Y269.689
X21.234 Y269.688
X23.405 Y269.388
X23.409
X25.571 Y269.069
X25.577 Y269.068
X27.73 Y268.727
X27.735 Y268.726
X29.878 Y268.361
X29.884 Y268.36
X32.015 Y267.969
X32.022 Y267.967
X34.14 Y267.547
X34.148 Y267.546
X36.253 Y267.095
X36.261 Y267.093
X38.352 Y266.61
X38.36 Y266.608
X40.436 Y266.09
X40.443 Y266.088
X41.474 Y265.815
X41.479 Y265.814
X42.506 Y265.532
X42.512 Y265.531
X43.535 Y265.238
X43.539 Y265.236
X44.558 Y264.934
X44.564 Y264.933
X45.578 Y264.62
X45.583 Y264.618
X46.593 Y264.294
X46.598 Y264.292
X47.603 Y263.958
X47.609 Y263.957
X48.609 Y263.611
X48.614 Y263.609
X49.609 Y263.252
X49.615 Y263.25
X50.605 Y262.88
X50.611 Y262.878
X51.595 Y262.497
X51.601 Y262.495
X52.581 Y262.102
X52.587 Y262.099
X53.561 Y261.693
X53.566 Y261.691
X54.534 Y261.273
X54.541 Y261.27
X55.504 Y260.838
X55.509 Y260.836
X56.466 Y260.392
X56.472 Y260.389
X57.424 Y259.932
X57.429 Y259.929
X58.376 Y259.461
X58.382 Y259.458
X59.323 Y258.977
X59.328 Y258.975
X60.264 Y258.483
X60.269 Y258.48
X61.2 Y257.977
X61.205 Y257.974
X62.132 Y257.46
X62.137 Y257.457
X63.059 Y256.931
X63.063 Y256.929
X63.98 Y256.394
X63.985 Y256.391
X64.897 Y255.845
X64.902 Y255.842
X65.81 Y255.286
X65.814 Y255.284
X66.718 Y254.719
X66.723 Y254.716
X67.623 Y254.141
X67.628 Y254.138
X69.417 Y252.961
X69.424 Y252.956
X71.197 Y251.745
X71.204 Y251.74
X72.963 Y250.496
X72.969 Y250.492
X74.715 Y249.218
X74.72 Y249.214
X76.454 Y247.912
X76.459 Y247.908
X78.182 Y246.581
X78.186 Y246.578
X79.899 Y245.227
X79.903 Y245.223
X81.606 Y243.85
X81.609 Y243.847
X83.304 Y242.455
X83.307 Y242.453
X84.994 Y241.044
X84.996 Y241.041
X86.677 Y239.616
X86.679 Y239.614
X88.354 Y238.177
X88.356 Y238.176
X90.026 Y236.728
X90.028 Y236.726
X93.358 Y233.806
X93.359 Y233.805
X96.681 Y230.868
G2 X96.741 Y230.805 I-0.331 J-0.375
G1 X99.513 Y227.33
X99.515 Y227.328
X102.271 Y223.847
X102.273 Y223.845
X103.64 Y222.1
X103.641 Y222.098
X104.998 Y220.35
X105. Y220.347
X106.344 Y218.592
X106.346 Y218.59
X107.677 Y216.831
X107.679 Y216.827
X108.993 Y215.06
X108.996 Y215.057
X110.292 Y213.283
X110.295 Y213.279
X111.571 Y211.497
X111.574 Y211.493
X112.828 Y209.702
X112.831 Y209.697
X114.06 Y207.897
X114.064 Y207.892
X115.267 Y206.08
X115.27 Y206.074
X116.444 Y204.252
X116.448 Y204.245
X117.592 Y202.409
X117.596 Y202.403
X118.708 Y200.555
X118.713 Y200.547
X119.79 Y198.685
X119.793 Y198.68
X120.318 Y197.744
X120.32 Y197.739
X120.836 Y196.798
X120.839 Y196.794
X121.345 Y195.85
X121.347 Y195.846
X121.843 Y194.898
X121.845 Y194.893
X122.331 Y193.941
X122.334 Y193.937
X122.81 Y192.981
X122.812 Y192.976
X123.277 Y192.015
X123.279 Y192.01
X123.733 Y191.045
X123.736 Y191.04
X124.179 Y190.07
X124.181 Y190.064
X124.612 Y189.09
X124.615 Y189.085
X125.035 Y188.106
X125.037 Y188.101
X125.445 Y187.117
X125.447 Y187.111
X125.843 Y186.123
X125.845 Y186.117
X126.229 Y185.123
X126.232 Y185.118
X126.604 Y184.12
X126.606 Y184.114
X126.966 Y183.111
X126.967 Y183.106
X127.316 Y182.098
X127.318 Y182.092
X127.656 Y181.08
X127.658 Y181.075
X127.985 Y180.059
X127.987 Y180.054
X128.303 Y179.033
X128.304 Y179.028
X128.61 Y178.004
X128.612 Y177.999
X128.908 Y176.97
X128.909 Y176.965
X129.195 Y175.932
X129.196 Y175.928
X129.473 Y174.891
X129.475 Y174.884
X130. Y172.8
X130.002 Y172.792
X130.493 Y170.693
X130.495 Y170.685
X130.952 Y168.573
X130.953 Y168.566
X131.38 Y166.442
X131.382 Y166.435
X131.78 Y164.298
X131.781 Y164.291
X132.151 Y162.144
X132.152 Y162.138
X132.498 Y159.981
X132.499 Y159.976
X132.822 Y157.81
X132.823 Y157.805
X133.125 Y155.631
X133.126 Y155.627
X133.41 Y153.445
Y153.441
X133.678 Y151.252
X133.679 Y151.248
X133.932 Y149.054
Y149.051
X134.173 Y146.851
Y146.849
X134.403 Y144.646
X134.404 Y144.643
X134.842 Y140.226
Y140.224
X135.264 Y135.801
G2 X135.265 Y135.73 I-0.498 J-0.047
G1 X135.031 Y130.89
Y130.889
X134.787 Y126.05
Y126.048
X134.521 Y121.215
Y121.211
X134.223 Y116.384
Y116.381
X134.058 Y113.971
Y113.968
X133.881 Y111.561
X133.88 Y111.558
X133.689 Y109.154
Y109.151
X133.484 Y106.751
Y106.748
X133.262 Y104.35
Y104.346
X133.023 Y101.953
X133.022 Y101.949
X132.764 Y99.56
Y99.556
X132.485 Y97.171
X132.484 Y97.167
X132.184 Y94.787
X132.183 Y94.782
X131.859 Y92.408
Y92.403
X131.511 Y90.033
X131.51 Y90.028
X131.137 Y87.664
X131.136 Y87.658
X130.735 Y85.301
X130.734 Y85.295
X130.305 Y82.944
X130.304 Y82.937
X129.845 Y80.593
X129.843 Y80.586
X129.353 Y78.248
X129.352 Y78.242
X128.829 Y75.911
X128.827 Y75.904
X128.272 Y73.581
X128.271 Y73.575
X127.686 Y71.258
X127.684 Y71.252
X127.068 Y68.941
X127.067 Y68.936
X126.424 Y66.632
X126.422 Y66.626
X125.751 Y64.328
X125.749 Y64.324
X125.054 Y62.031
X125.053 Y62.026
X124.333 Y59.739
X124.331 Y59.735
X123.589 Y57.453
X123.588 Y57.448
X122.825 Y55.171
X122.824 Y55.167
X122.041 Y52.894
X122.039 Y52.89
X121.238 Y50.621
X121.237 Y50.618
X120.419 Y48.353
X120.418 Y48.35
X119.584 Y46.088
X119.583 Y46.085
X118.736 Y43.827
X118.735 Y43.824
X117.875 Y41.568
X117.874 Y41.565
X116.121 Y37.06
X116.12 Y37.057
X114.333 Y32.56
X114.332 Y32.558
X112.523 Y28.065
X112.522 Y28.064
X110.702 Y23.575
G2 X110.67 Y23.508 I-0.463 J0.188
G1 X108.133 Y19.209
X105.591 Y14.914
Y14.912
X103.039 Y10.624
X103.038 Y10.623
X100.47 Y6.345
X100.468 Y6.343
X97.879 Y2.08
X97.877 Y2.078
X95.261 Y-2.167
X95.26 Y-2.17
X93.94 Y-4.284
X93.939 Y-4.286
X92.611 Y-6.394
X92.609 Y-6.396
X91.272 Y-8.499
X91.271 Y-8.501
X89.923 Y-10.596
X89.922 Y-10.598
X88.563 Y-12.687
X88.562 Y-12.689
X87.193 Y-14.769
X87.191 Y-14.772
X85.81 Y-16.844
X85.808 Y-16.847
X84.415 Y-18.911
X84.414 Y-18.913
X83.009 Y-20.97
X83.008 Y-20.972
X81.592 Y-23.022
X81.591 Y-23.024
X80.165 Y-25.066
X80.163 Y-25.068
X78.727 Y-27.103
X78.726 Y-27.105
X77.28 Y-29.134
X77.279 Y-29.136
X75.824 Y-31.158
X75.823 Y-31.16
X74.359 Y-33.176
X74.357 Y-33.177
X72.885 Y-35.188
X72.883 Y-35.19
X69.914 Y-39.195
X69.912 Y-39.198
X66.914 Y-43.182
X66.912 Y-43.185
X63.888 Y-47.152
X63.886 Y-47.154
X60.839 Y-51.106
X60.838 Y-51.107
X57.772 Y-55.046
X57.77 Y-55.047
X54.688 Y-58.975
X54.687 Y-58.976
X51.591 Y-62.894
Y-62.895
X48.485 Y-66.807
X45.373 Y-70.715
X42.295 Y-74.574
X41.213 Y-76.901
X40.103 Y-79.28
X40.102 Y-79.282
X38.985 Y-81.657
X38.984 Y-81.659
X37.857 Y-84.029
X37.856 Y-84.032
X36.716 Y-86.394
X36.715 Y-86.398
X35.558 Y-88.751
X35.556 Y-88.755
X34.38 Y-91.098
X34.378 Y-91.102
X33.179 Y-93.432
X33.176 Y-93.437
X31.951 Y-95.753
X31.948 Y-95.758
X30.693 Y-98.058
X30.69 Y-98.063
X29.409 Y-100.347
X29.406 Y-100.352
X28.098 Y-102.622
X28.096 Y-102.626
X26.765 Y-104.883
X26.762 Y-104.887
X25.409 Y-107.132
X25.407 Y-107.136
X24.035 Y-109.37
X24.032 Y-109.373
X22.642 Y-111.597
X22.64 Y-111.6
X21.234 Y-113.815
X21.233 Y-113.817
X19.813 Y-116.025
X19.811 Y-116.028
X18.38 Y-118.229
X18.378 Y-118.23
X16.937 Y-120.426
X16.936 Y-120.428
X15.486 Y-122.619
Y-122.62
X14.03 Y-124.808
X12.571 Y-126.995
X11.109 Y-129.18
X-3.259 Y-150.715
X-4.14 Y-152.057
X-5.022 Y-153.401
X-5.903 Y-154.745
X-6.782 Y-156.09
X-7.661 Y-157.434
X-8.537 Y-158.78
X-9.411 Y-160.128
X-10.283 Y-161.477
X-11.152 Y-162.827
X-12.018 Y-164.18
X-12.88 Y-165.534
X-13.738 Y-166.892
X-14.591 Y-168.25
X-15.44 Y-169.613
X-16.285 Y-170.977
X-17.125 Y-172.346
X-17.961 Y-173.716
X-18.794 Y-175.089
X-19.624 Y-176.464
X-20.452 Y-177.84
X-21.278 Y-179.218
X-22.103 Y-180.597
X-22.35 Y-181.011
X128.353 Y-181.292
G2 X128.852 Y-181.792 I-0.001 J-0.5
G1 Y-271.143
G2 X128.352 Y-271.643 I-0.5 J0.
G1 X-134.766
G2 X-135.266 Y-271.143 I0. J0.5
G1 Y-227.379
G3 X-135.366 Y-227.279 I-0.1 J0.
G1 X-135.466
X-135.504 Z-0.992
X-135.537 Z-0.971
X-135.558 Z-0.938
X-135.566 Z-0.9
G0 Z15.
M5
G53 Z0.
M30
